;FLAVOR:UltiGCode
;TIME:3453
;MATERIAL:6551
;MATERIAL2:0
;NOZZLE_DIAMETER:0.4
;MINX:86.295
;MINY:87.795
;MINZ:0.27
;MAXX:136.705
;MAXY:135.205
;MAXZ:24.57
;TARGET_MACHINE.NAME:Ultimaker 2+
;Generated with Cura_SteamEngine 5.6.0
M82 ;absolute extrusion mode
G0 F3000 Y50 ;avoid prime blob
G92 E0
G92 E0
G10
;LAYER_COUNT:163
;LAYER:0
M107
G0 F9000 X87.385 Y91.291 Z0.27
;TYPE:SKIRT
G11
G1 F1800 X89.952 Y88.798 E0.38646
G1 X93.024 Y87.795 E0.73547
G1 X130.275 Y87.795 E4.75858
G1 X132.893 Y88.685 E5.05722
G1 X133.209 Y88.885 E5.09761
G1 X135.702 Y91.452 E5.48407
G1 X136.705 Y94.524 E5.83308
G1 X136.705 Y128.384 E9.48996
G1 X136.285 Y130.312 E9.70307
G1 X135.175 Y132.132 E9.9333
G1 X133.029 Y134.214 E10.25622
G1 X129.972 Y135.205 E10.60329
G1 X93.116 Y135.205 E14.58374
G1 X91.188 Y134.785 E14.79684
G1 X89.368 Y133.675 E15.02708
G1 X87.286 Y131.529 E15.35
G1 X86.295 Y128.472 E15.69707
G1 X86.295 Y94.225 E19.39574
G1 X87.185 Y91.607 E19.69438
G1 X87.385 Y91.291 E19.73477
G0 F9000 X87.664 Y91.578
G1 F1800 X90.165 Y89.149 E20.1113
G1 X93.087 Y88.195 E20.44327
G1 X130.208 Y88.195 E24.45234
G1 X132.764 Y89.064 E24.7439
G1 X132.922 Y89.164 E24.7641
G1 X135.351 Y91.665 E25.14063
G1 X136.305 Y94.587 E25.4726
G1 X136.305 Y128.34 E29.11792
G1 X135.908 Y130.163 E29.31942
G1 X134.862 Y131.878 E29.53637
G1 X132.817 Y133.862 E29.84409
G1 X129.908 Y134.805 E30.17436
G1 X93.16 Y134.805 E34.14314
G1 X91.337 Y134.408 E34.34464
G1 X89.622 Y133.362 E34.56159
G1 X87.638 Y131.317 E34.86931
G1 X86.695 Y128.408 E35.19958
G1 X86.695 Y94.292 E38.88411
G1 X87.564 Y91.736 E39.17568
G1 X87.664 Y91.578 E39.19587
G0 F9000 X87.943 Y91.865
G1 F1800 X90.378 Y89.5 E39.56247
G1 X93.15 Y88.595 E39.8774
G1 X130.141 Y88.595 E43.87243
G1 X132.635 Y89.443 E44.15692
G1 X135 Y91.878 E44.52353
G1 X135.905 Y94.65 E44.83845
G1 X135.905 Y128.296 E48.47222
G1 X135.531 Y130.014 E48.66211
G1 X134.549 Y131.624 E48.86578
G1 X132.605 Y133.51 E49.15831
G1 X129.844 Y134.405 E49.47177
G1 X93.204 Y134.405 E53.42889
G1 X91.486 Y134.031 E53.61878
G1 X89.876 Y133.049 E53.82245
G1 X87.99 Y131.105 E54.11497
G1 X87.095 Y128.344 E54.42843
G1 X87.095 Y94.359 E58.09881
G1 X87.943 Y91.865 E58.38331
G0 F9000 X88.291 Y92.085
G1 F1800 X90.591 Y89.851 E58.7296
G1 X93.213 Y88.995 E59.02748
G1 X130.074 Y88.995 E63.00847
G1 X132.415 Y89.791 E63.27551
G1 X134.649 Y92.091 E63.6218
G1 X135.505 Y94.713 E63.91969
G1 X135.505 Y128.252 E67.5419
G1 X135.154 Y129.865 E67.72018
G1 X134.236 Y131.37 E67.91057
G1 X132.393 Y133.158 E68.18789
G1 X129.78 Y134.005 E68.48455
G1 X93.248 Y134.005 E72.43001
G1 X91.635 Y133.654 E72.60829
G1 X90.13 Y132.736 E72.79868
G1 X88.342 Y130.893 E73.076
G1 X87.495 Y128.28 E73.37266
G1 X87.495 Y94.426 E77.02889
G1 X88.291 Y92.085 E77.29594
G0 F9000 X88.639 Y92.305
G1 F1800 X90.804 Y90.202 E77.62191
G1 X93.276 Y89.395 E77.90275
G1 X130.007 Y89.395 E81.8697
G1 X132.195 Y90.139 E82.11929
G1 X134.298 Y92.304 E82.44526
G1 X135.105 Y94.776 E82.7261
G1 X135.105 Y128.208 E86.33676
G1 X134.777 Y129.716 E86.50343
G1 X133.923 Y131.116 E86.68054
G1 X132.181 Y132.806 E86.94267
G1 X129.716 Y133.605 E87.22252
G1 X93.292 Y133.605 E91.15631
G1 X91.784 Y133.277 E91.32299
G1 X90.384 Y132.423 E91.5001
G1 X88.694 Y130.681 E91.76222
G1 X87.895 Y128.216 E92.04208
G1 X87.895 Y94.493 E95.68416
G1 X88.639 Y92.305 E95.93375
G0 F9000 X88.987 Y92.525
G1 F1800 X91.017 Y90.553 E96.23941
G1 X93.339 Y89.795 E96.50321
G1 X129.94 Y89.795 E100.45611
G1 X131.975 Y90.487 E100.68825
G1 X133.947 Y92.517 E100.99391
G1 X134.705 Y94.839 E101.25771
G1 X134.705 Y128.164 E104.85681
G1 X134.4 Y129.567 E105.01187
G1 X133.61 Y130.862 E105.1757
G1 X131.969 Y132.454 E105.42263
G1 X129.652 Y133.205 E105.68568
G1 X93.336 Y133.205 E109.60781
G1 X91.933 Y132.9 E109.76287
G1 X90.638 Y132.11 E109.9267
G1 X89.046 Y130.469 E110.17363
G1 X88.295 Y128.152 E110.43668
G1 X88.295 Y94.56 E114.06461
G1 X88.987 Y92.525 E114.29675
G0 F9000 X89.335 Y92.745
G1 F1800 X91.23 Y90.904 E114.58209
G1 X93.402 Y90.195 E114.82885
G1 X129.873 Y90.195 E118.76772
G1 X131.755 Y90.835 E118.9824
G1 X133.596 Y92.73 E119.26774
G1 X134.305 Y94.902 E119.5145
G1 X134.305 Y128.12 E123.10204
G1 X134.023 Y129.418 E123.2455
G1 X133.297 Y130.608 E123.39605
G1 X131.757 Y132.102 E123.62777
G1 X129.588 Y132.805 E123.87402
G1 X93.38 Y132.805 E127.78449
G1 X92.082 Y132.523 E127.92794
G1 X90.892 Y131.797 E128.07849
G1 X89.398 Y130.257 E128.31022
G1 X88.695 Y128.088 E128.55647
G1 X88.695 Y94.627 E132.17025
G1 X89.335 Y92.745 E132.38494
G0 F9000 X89.683 Y92.965
G1 F1800 X91.443 Y91.255 E132.64996
G1 X93.465 Y90.595 E132.87968
G1 X129.806 Y90.595 E136.80451
G1 X131.535 Y91.183 E137.00174
G1 X133.245 Y92.943 E137.26676
G1 X133.905 Y94.965 E137.49648
G1 X133.905 Y128.076 E141.07247
G1 X133.646 Y129.269 E141.20431
G1 X132.984 Y130.354 E141.34158
G1 X131.545 Y131.75 E141.55811
G1 X129.524 Y132.405 E141.78755
G1 X93.424 Y132.405 E145.68635
G1 X92.231 Y132.146 E145.8182
G1 X91.146 Y131.484 E145.95547
G1 X89.75 Y130.045 E146.17199
G1 X89.095 Y128.024 E146.40144
G1 X89.095 Y94.694 E150.00108
G1 X89.683 Y92.965 E150.19831
G0 F9000 X90.031 Y93.185
G1 F1800 X91.656 Y91.606 E150.44302
G1 X93.528 Y90.995 E150.65569
G1 X129.739 Y90.995 E154.56648
G1 X131.315 Y91.531 E154.74626
G1 X132.894 Y93.156 E154.99097
G1 X133.505 Y95.028 E155.20364
G1 X133.505 Y128.032 E158.76808
G1 X133.269 Y129.12 E158.88831
G1 X132.671 Y130.1 E159.0123
G1 X131.333 Y131.398 E159.21363
G1 X129.46 Y132.005 E159.42627
G1 X93.468 Y132.005 E163.31341
G1 X92.38 Y131.769 E163.43364
G1 X91.4 Y131.171 E163.55763
G1 X90.102 Y129.833 E163.75896
G1 X89.495 Y127.96 E163.9716
G1 X89.495 Y94.761 E167.55709
G1 X90.031 Y93.185 E167.73688
G0 F9000 X90.379 Y93.405
G1 F1800 X91.869 Y91.957 E167.96127
G1 X93.591 Y91.395 E168.1569
G1 X129.672 Y91.395 E172.05364
G1 X131.095 Y91.879 E172.21597
G1 X132.543 Y93.369 E172.44037
G1 X133.105 Y95.091 E172.636
G1 X133.105 Y127.988 E176.18887
G1 X132.892 Y128.969 E176.29729
G1 X132.356 Y129.848 E176.40848
G1 X131.12 Y131.047 E176.59445
G1 X129.399 Y131.605 E176.78985
G1 X93.512 Y131.605 E180.66564
G1 X92.531 Y131.392 E180.77406
G1 X91.652 Y130.856 E180.88525
G1 X90.453 Y129.62 E181.07123
G1 X89.895 Y127.899 E181.26662
G1 X89.895 Y94.828 E184.83829
G1 X90.379 Y93.405 E185.00062
G0 F9000 X90.727 Y93.625
G1 F1800 X92.082 Y92.308 E185.20469
G1 X93.654 Y91.795 E185.38328
G1 X129.605 Y91.795 E189.26599
G1 X130.875 Y92.227 E189.41087
G1 X132.192 Y93.582 E189.61494
G1 X132.705 Y95.154 E189.79353
G1 X132.705 Y127.944 E193.33485
G1 X132.515 Y128.818 E193.43145
G1 X132.041 Y129.596 E193.52984
G1 X130.907 Y130.696 E193.70046
G1 X129.338 Y131.205 E193.87861
G1 X93.556 Y131.205 E197.74306
G1 X92.682 Y131.015 E197.83966
G1 X91.904 Y130.541 E197.93805
G1 X90.804 Y129.407 E198.10867
G1 X90.295 Y127.838 E198.28682
G1 X90.295 Y94.895 E201.84466
G1 X90.727 Y93.625 E201.98954
G0 F9000 X91.075 Y93.845
G1 F1800 X92.295 Y92.659 E202.1733
G1 X93.717 Y92.195 E202.33485
G1 X129.538 Y92.195 E206.20351
G1 X130.655 Y92.575 E206.33094
G1 X131.841 Y93.795 E206.5147
G1 X132.305 Y95.217 E206.67624
G1 X132.305 Y127.9 E210.20601
G1 X132.138 Y128.667 E210.29078
G1 X131.724 Y129.347 E210.37676
G1 X130.695 Y130.345 E210.53158
G1 X129.277 Y130.805 E210.69258
G1 X93.6 Y130.805 E214.5457
G1 X92.833 Y130.638 E214.63047
G1 X92.153 Y130.224 E214.71645
G1 X91.155 Y129.195 E214.87127
G1 X90.695 Y127.777 E215.03227
G1 X90.695 Y94.962 E218.57629
G1 X91.075 Y93.845 E218.70371
G0 F9000 X91.423 Y94.065
G1 F1800 X92.508 Y93.01 E218.86716
G1 X93.78 Y92.595 E219.01166
G1 X129.471 Y92.595 E222.86629
G1 X130.435 Y92.923 E222.97626
G1 X131.49 Y94.008 E223.1397
G1 X131.905 Y95.28 E223.28421
G1 X131.905 Y127.856 E226.80241
G1 X131.761 Y128.516 E226.87537
G1 X131.407 Y129.098 E226.94894
G1 X130.483 Y129.994 E227.08795
G1 X129.216 Y130.405 E227.2318
G1 X93.644 Y130.405 E231.07358
G1 X92.984 Y130.261 E231.14653
G1 X92.402 Y129.907 E231.2201
G1 X91.506 Y128.983 E231.35911
G1 X91.095 Y127.716 E231.50297
G1 X91.095 Y95.029 E235.03316
G1 X91.423 Y94.065 E235.14313
G0 F9000 X91.771 Y94.285
G1 F1800 X92.721 Y93.361 E235.28626
G1 X93.843 Y92.995 E235.41372
G1 X129.404 Y92.995 E239.25431
G1 X130.215 Y93.271 E239.34683
G1 X131.139 Y94.221 E239.48996
G1 X131.505 Y95.343 E239.61742
G1 X131.505 Y127.812 E243.12407
G1 X131.384 Y128.365 E243.18521
G1 X131.09 Y128.849 E243.24637
G1 X130.271 Y129.643 E243.36956
G1 X129.155 Y130.005 E243.49627
G1 X93.688 Y130.005 E247.32671
G1 X93.135 Y129.884 E247.38785
G1 X92.651 Y129.59 E247.44901
G1 X91.857 Y128.771 E247.5722
G1 X91.495 Y127.655 E247.69891
G1 X91.495 Y95.096 E251.21528
G1 X91.771 Y94.285 E251.3078
G0 F9000 X92.119 Y94.505
G1 F1800 X92.934 Y93.712 E251.43061
G1 X93.906 Y93.395 E251.54103
G1 X129.337 Y93.395 E255.36758
G1 X129.995 Y93.619 E255.44265
G1 X130.788 Y94.434 E255.56546
G1 X131.105 Y95.406 E255.67588
G1 X131.105 Y127.812 E259.17573
G1 X130.995 Y128.272 E259.22681
G1 X130.812 Y128.562 E259.26384
G1 X130.06 Y129.291 E259.37695
G1 X129.093 Y129.605 E259.48676
G1 X93.688 Y129.605 E263.3105
G1 X93.228 Y129.495 E263.36158
G1 X92.938 Y129.312 E263.39861
G1 X92.209 Y128.56 E263.51173
G1 X91.895 Y127.593 E263.62153
G1 X91.895 Y95.163 E267.12397
G1 X92.119 Y94.505 E267.19904
G0 F9000 X92.467 Y94.725
G1 F1800 X93.147 Y94.063 E267.30154
G1 X93.969 Y93.795 E267.39491
G1 X129.27 Y93.795 E271.20742
G1 X129.775 Y93.967 E271.26504
G1 X130.437 Y94.647 E271.36753
G1 X130.705 Y95.469 E271.4609
G1 X130.705 Y127.772 E274.94963
G1 X130.646 Y128.076 E274.98307
G1 X130.534 Y128.275 E275.00774
G1 X129.849 Y128.939 E275.11077
G1 X129.031 Y129.205 E275.20367
G1 X93.728 Y129.205 E279.01639
G1 X93.424 Y129.146 E279.04983
G1 X93.225 Y129.034 E279.0745
G1 X92.561 Y128.349 E279.17753
G1 X92.295 Y127.531 E279.27043
G1 X92.295 Y95.23 E282.75893
G1 X92.467 Y94.725 E282.81655
G0 F9000 X92.746 Y95.012
G1 F1800 X93.36 Y94.414 E282.90912
G1 X94.032 Y94.195 E282.98545
G1 X129.27 Y94.195 E286.79115
G1 X129.488 Y94.246 E286.81533
G1 X130.086 Y94.86 E286.9079
G1 X130.305 Y95.532 E286.98423
G1 X130.305 Y127.772 E290.46615
G1 X130.256 Y127.988 E290.49007
G1 X129.638 Y128.587 E290.58302
G1 X128.968 Y128.805 E290.65912
G1 X93.728 Y128.805 E294.46504
G1 X93.512 Y128.756 E294.48896
G1 X92.913 Y128.138 E294.58191
G1 X92.695 Y127.468 E294.658
G1 X92.695 Y95.23 E298.13971
G1 X92.746 Y95.012 E298.16389
G0 F9000 X93.095 Y95.23
G1 F1800 X93.573 Y94.765 E298.23591
G1 X94.095 Y94.595 E298.2952
G1 X129.27 Y94.595 E302.0941
G1 X129.735 Y95.073 E302.16612
G1 X129.905 Y95.595 E302.22541
G1 X129.905 Y127.772 E305.70052
G1 X129.427 Y128.235 E305.7724
G1 X128.905 Y128.405 E305.83169
G1 X93.728 Y128.405 E309.6308
G1 X93.265 Y127.927 E309.70267
G1 X93.095 Y127.405 E309.76196
G1 X93.095 Y95.23 E313.23686
G0 F9000 X93.895 Y95.496
G1 F1800 X94.095 Y95.395 E313.26106
G1 X129.004 Y95.395 E317.03123
G1 X129.105 Y95.595 E317.05543
G1 X129.105 Y127.504 E320.5016
G1 X128.905 Y127.605 E320.5258
G1 X93.996 Y127.605 E324.29597
G1 X93.895 Y127.405 E324.32017
G1 X93.895 Y95.496 E327.76634
G0 F9000 X93.715 Y95.139
G1 F1800 X94.095 Y94.995 E327.81023
G1 X129.136 Y94.995 E331.59466
G1 X129.361 Y95.215 E331.62865
G1 X129.505 Y95.595 E331.67253
G1 X129.505 Y127.637 E335.13307
G1 X129.285 Y127.861 E335.16698
G1 X128.905 Y128.005 E335.21087
G1 X93.863 Y128.005 E338.9954
G1 X93.639 Y127.785 E339.02931
G1 X93.495 Y127.405 E339.0732
G1 X93.495 Y95.364 E342.53363
G1 X93.715 Y95.139 E342.56761
G10
;MESH:box.stl
G0 F9000 X98.875 Y102.705
G0 X115.036 Y119.793
;TYPE:WALL-OUTER
G11
G1 F1800 X98.905 Y119.79 E344.48397
G1 X98.81 Y119.738 E344.49684
G1 X98.707 Y119.536 E344.52378
G1 X98.705 Y103.404 E346.44026
G1 X98.776 Y103.297 E346.45551
G1 X98.964 Y103.207 E346.48028
G1 X115.114 Y103.209 E348.3989
G1 X115.294 Y103.471 E348.43666
G1 X115.294 Y119.576 E350.34993
G1 X115.217 Y119.708 E350.36809
G1 X115.036 Y119.793 E350.39184
G0 F9000 X114.836 Y119.793
G10
G0 X114.836 Y120.095
G0 X115.61 Y126.704
G0 X128.705 Y127.205
G11
G1 F1800 X128.705 Y95.795 E354.12335
G1 X94.296 Y95.796 E358.21114
G1 X94.296 Y127.204 E361.94241
G1 X128.705 Y127.205 E366.0302
G0 F9000 X128.705 Y127.005
G0 X128.305 Y126.805
;TYPE:WALL-INNER
G1 F1800 X128.305 Y96.195 E369.17079
G1 X94.696 Y96.196 E372.61907
G1 X94.696 Y126.804 E375.75945
G1 X128.305 Y126.805 E379.20773
G10
G0 F9000 X115.078 Y126.704
G0 X115.078 Y120.295
G0 X115.08 Y120.195
G11
G1 F1800 X98.854 Y120.195 E380.87252
G1 X98.529 Y120.023 E380.91025
G1 X98.305 Y119.581 E380.96109
G1 X98.305 Y103.31 E382.63049
G1 X98.52 Y102.99 E382.67005
G1 X98.92 Y102.805 E382.71527
G1 X115.135 Y102.805 E384.37892
G1 X115.391 Y102.911 E384.40735
G1 X115.541 Y103.06 E384.42904
G1 X115.69 Y103.415 E384.46855
G1 X115.69 Y119.629 E386.1321
G1 X115.542 Y119.95 E386.16837
G1 X115.08 Y120.195 E386.22202
G0 F9000 X115.151 Y120.513
;TYPE:SKIN
G1 F1800 X98.794 Y120.509 E387.81634
G1 X98.29 Y120.241 E387.87198
G1 X97.987 Y119.649 E387.9368
G1 X97.985 Y103.22 E389.53813
G1 X98.357 Y102.718 E389.59903
G1 X98.833 Y102.487 E389.6506
G1 X115.197 Y102.489 E391.2456
G1 X115.538 Y102.629 E391.28153
G1 X115.805 Y102.883 E391.31745
G1 X116.009 Y103.381 E391.36991
G1 X116.014 Y119.633 E392.95399
G1 X115.778 Y120.178 E393.01188
G1 X115.151 Y120.513 E393.08117
G10
G0 F9000 X115.079 Y120.217
G0 X115.61 Y126.704
G0 X127.985 Y126.485
G11
G1 F1800 X127.985 Y96.515 E396.00234
G1 X95.017 Y96.517 E399.21573
G1 X95.017 Y126.483 E402.13652
G1 X127.985 Y126.485 E405.34991
G10
G0 F9000 X127.984 Y126.784
G0 X128.285 Y97.237
G0 X127.784 Y97.237
G11
G1 F1800 X127.262 Y96.715 E405.42187
G0 F9000 X126.697 Y96.715
G1 F1800 X127.784 Y97.802 E405.5717
G0 F9000 X127.784 Y98.368
G1 F1800 X126.131 Y96.715 E405.79956
G0 F9000 X125.565 Y96.715
G1 F1800 X127.784 Y98.934 E406.10543
G0 F9000 X127.784 Y99.499
G1 F1800 X125 Y96.715 E406.48919
G0 F9000 X124.434 Y96.715
G1 F1800 X127.784 Y100.065 E406.95096
G0 F9000 X127.784 Y100.631
G1 F1800 X123.868 Y96.715 E407.49076
G0 F9000 X123.303 Y96.715
G1 F1800 X127.784 Y101.196 E408.10843
G0 F9000 X127.784 Y101.762
G1 F1800 X122.737 Y96.715 E408.80413
G0 F9000 X122.171 Y96.715
G1 F1800 X127.784 Y102.328 E409.57784
G0 F9000 X127.784 Y102.893
G1 F1800 X121.606 Y96.715 E410.42944
G0 F9000 X121.04 Y96.715
G1 F1800 X127.784 Y103.459 E411.35906
G0 F9000 X127.784 Y104.025
G1 F1800 X120.474 Y96.715 E412.36669
G0 F9000 X119.909 Y96.715
G1 F1800 X127.784 Y104.59 E413.45221
G0 F9000 X127.784 Y105.156
G1 F1800 X119.343 Y96.715 E414.61574
G0 F9000 X118.777 Y96.715
G1 F1800 X127.784 Y105.722 E415.8573
G0 F9000 X127.784 Y106.288
G1 F1800 X118.211 Y96.715 E417.17687
G0 F9000 X117.646 Y96.715
G1 F1800 X127.784 Y106.853 E418.57433
G0 F9000 X127.784 Y107.419
G1 F1800 X117.08 Y96.715 E420.04981
G0 F9000 X116.514 Y96.715
G1 F1800 X127.784 Y107.985 E421.6033
G0 F9000 X127.784 Y108.55
G1 F1800 X115.949 Y96.715 E423.23468
G0 F9000 X115.383 Y96.715
G1 F1800 X127.784 Y109.116 E424.94407
G0 F9000 X127.784 Y109.682
G1 F1800 X114.817 Y96.715 E426.73149
G0 F9000 X114.252 Y96.715
G1 F1800 X127.784 Y110.247 E428.59679
G0 F9000 X127.784 Y110.813
G1 F1800 X113.686 Y96.715 E430.5401
G0 F9000 X113.12 Y96.715
G1 F1800 X127.784 Y111.379 E432.56144
G0 F9000 X127.784 Y111.944
G1 F1800 X112.555 Y96.715 E434.66065
G0 F9000 X111.989 Y96.715
G1 F1800 X127.784 Y112.51 E436.83789
G0 F9000 X127.784 Y113.076
G1 F1800 X111.423 Y96.715 E439.09315
G0 F9000 X110.858 Y96.715
G1 F1800 X127.784 Y113.641 E441.42628
G0 F9000 X127.784 Y114.207
G1 F1800 X110.292 Y96.715 E443.83744
G0 F9000 X109.726 Y96.715
G1 F1800 X115.353 Y102.343 E444.61315
G0 F9000 X114.73 Y102.285
G1 F1800 X109.161 Y96.715 E445.38087
G0 F9000 X108.595 Y96.715
G1 F1800 X114.164 Y102.285 E446.14859
G0 F9000 X113.598 Y102.285
G1 F1800 X108.029 Y96.715 E446.91631
G0 F9000 X107.463 Y96.715
G1 F1800 X113.033 Y102.285 E447.6841
G0 F9000 X112.468 Y102.285
G1 F1800 X106.898 Y96.715 E448.45189
G0 F9000 X106.332 Y96.715
G1 F1800 X111.902 Y102.285 E449.21967
G0 F9000 X111.336 Y102.285
G1 F1800 X105.766 Y96.715 E449.98746
G0 F9000 X105.201 Y96.715
G1 F1800 X110.771 Y102.285 E450.75525
G0 F9000 X110.205 Y102.285
G1 F1800 X104.635 Y96.715 E451.52304
G0 F9000 X104.069 Y96.715
