;FLAVOR:UltiGCode
;TIME:2227
;MATERIAL:4550
;MATERIAL2:0
;NOZZLE_DIAMETER:0.4
;MINX:83.595
;MINY:84.595
;MINZ:0.27
;MAXX:139.405
;MAXY:138.405
;MAXZ:9.57
;TARGET_MACHINE.NAME:Ultimaker 2+
;Generated with Cura_SteamEngine 5.6.0
M82 ;absolute extrusion mode
G0 F3000 Y50 ;avoid prime blob
G92 E0
G92 E0
G10
;LAYER_COUNT:63
;LAYER:0
M107
G0 F9000 X88.406 Y89.277 Z0.27
;TYPE:SKIRT
G11
G1 F1800 X89.381 Y88.393 E0.14214
G1 X91.085 Y87.143 E0.37038
G1 X92.398 Y86.388 E0.53395
G1 X93.853 Y85.729 E0.70646
G1 X95.196 Y85.267 E0.85984
G1 X96.674 Y84.905 E1.02419
G1 X98.586 Y84.636 E1.23272
G1 X99.415 Y84.595 E1.32236
G1 X123.215 Y84.595 E3.89276
G1 X125.147 Y84.713 E4.1018
G1 X125.973 Y84.835 E4.19198
G1 X128.188 Y85.391 E4.43862
G1 X129.747 Y85.975 E4.61842
G1 X130.518 Y86.34 E4.71054
G1 X132.396 Y87.462 E4.94681
G1 X133.496 Y88.286 E5.09525
G1 X134.664 Y89.351 E5.26596
G1 X135.622 Y90.402 E5.41954
G1 X136.876 Y92.104 E5.64786
G1 X137.39 Y92.973 E5.7569
G1 X138.25 Y94.797 E5.97469
G1 X138.683 Y96.023 E6.11512
G1 X139.116 Y97.793 E6.31191
G1 X139.364 Y99.581 E6.50687
G1 X139.405 Y100.41 E6.59651
G1 X139.405 Y122.584 E8.9913
G1 X139.364 Y123.414 E9.08105
G1 X139.085 Y125.356 E9.29294
G1 X138.659 Y127.028 E9.47928
G1 X138.056 Y128.656 E9.66678
G1 X137.336 Y130.13 E9.84395
G1 X136.899 Y130.863 E9.93611
G1 X135.462 Y132.793 E10.19598
G1 X134.709 Y133.607 E10.31574
G1 X133.424 Y134.768 E10.50278
G1 X132.167 Y135.696 E10.67152
G1 X130.79 Y136.515 E10.84455
G1 X129.42 Y137.161 E11.00814
G1 X127.804 Y137.733 E11.19328
G1 X126.324 Y138.095 E11.35783
G1 X124.358 Y138.364 E11.57214
G1 X123.225 Y138.405 E11.69458
G1 X99.335 Y138.386 E14.2747
G1 X97.853 Y138.287 E14.43511
G1 X97.027 Y138.165 E14.52529
G1 X94.812 Y137.609 E14.77193
G1 X93.253 Y137.025 E14.95173
G1 X92.482 Y136.66 E15.04386
G1 X90.51 Y135.481 E15.29199
G1 X89.823 Y134.973 E15.38427
G1 X88.127 Y133.43 E15.6319
G1 X87.162 Y132.341 E15.78905
G1 X86.329 Y131.21 E15.94075
G1 X85.606 Y130.011 E16.09196
G1 X84.764 Y128.232 E16.30453
G1 X84.28 Y126.855 E16.46216
G1 X83.905 Y125.325 E16.63229
G1 X83.636 Y123.414 E16.84071
G1 X83.595 Y122.59 E16.92982
G1 X83.595 Y100.416 E19.32461
G1 X83.636 Y99.583 E19.41468
G1 X83.94 Y97.473 E19.64491
G1 X84.188 Y96.459 E19.75765
G1 X84.993 Y94.234 E20.0132
G1 X85.664 Y92.87 E20.17737
G1 X86.101 Y92.137 E20.26954
G1 X87.487 Y90.27 E20.52066
G1 X88.406 Y89.277 E20.66678
G0 F9000 X88.7 Y89.549
G1 F1800 X89.618 Y88.716 E20.80066
G1 X91.322 Y87.466 E21.0289
G1 X92.597 Y86.735 E21.18763
G1 X93.983 Y86.107 E21.35196
G1 X95.291 Y85.656 E21.50139
G1 X96.769 Y85.294 E21.66573
G1 X98.606 Y85.036 E21.86607
G1 X99.435 Y84.995 E21.95571
G1 X123.215 Y84.995 E24.52395
G1 X125.089 Y85.109 E24.72672
G1 X125.915 Y85.231 E24.8169
G1 X128.048 Y85.766 E25.0544
G1 X129.576 Y86.337 E25.23057
G1 X130.347 Y86.702 E25.32269
G1 X132.156 Y87.782 E25.55024
G1 X133.226 Y88.582 E25.69452
G1 X134.394 Y89.647 E25.86523
G1 X135.326 Y90.671 E26.01477
G1 X136.532 Y92.308 E26.23437
G1 X137.028 Y93.144 E26.33935
G1 X137.888 Y94.968 E26.55714
G1 X138.294 Y96.118 E26.68885
G1 X138.727 Y97.888 E26.88565
G1 X138.964 Y99.601 E27.07242
G1 X139.005 Y100.43 E27.16206
G1 X139.005 Y122.564 E29.55253
G1 X138.964 Y123.394 E29.64228
G1 X138.697 Y125.257 E29.84554
G1 X138.271 Y126.929 E30.03188
G1 X137.696 Y128.481 E30.21063
G1 X136.992 Y129.925 E30.38413
G1 X136.555 Y130.658 E30.4763
G1 X135.168 Y132.521 E30.72714
G1 X134.415 Y133.335 E30.8469
G1 X133.186 Y134.446 E31.02583
G1 X131.929 Y135.374 E31.19457
G1 X130.619 Y136.153 E31.35917
G1 X129.249 Y136.799 E31.52276
G1 X127.709 Y137.344 E31.69919
G1 X126.229 Y137.706 E31.86374
G1 X124.343 Y137.964 E32.06932
G1 X123.225 Y138.005 E32.19015
G1 X99.361 Y137.987 E34.76746
G1 X97.911 Y137.891 E34.9244
G1 X97.085 Y137.769 E35.01458
G1 X94.952 Y137.234 E35.25208
G1 X93.424 Y136.663 E35.42825
G1 X92.653 Y136.298 E35.52038
G1 X90.748 Y135.159 E35.76009
G1 X90.061 Y134.651 E35.85236
G1 X88.426 Y133.164 E36.09105
G1 X87.484 Y132.103 E36.24429
G1 X86.672 Y131.003 E36.39195
G1 X85.949 Y129.804 E36.54316
G1 X85.141 Y128.099 E36.74693
G1 X84.669 Y126.76 E36.90026
G1 X84.294 Y125.23 E37.0704
G1 X84.036 Y123.394 E37.27063
G1 X83.995 Y122.57 E37.35973
G1 X83.995 Y100.436 E39.75021
G1 X84.036 Y99.603 E39.84028
G1 X84.329 Y97.568 E40.06233
G1 X84.577 Y96.554 E40.17507
G1 X85.352 Y94.41 E40.42128
G1 X86.008 Y93.075 E40.58193
G1 X86.445 Y92.342 E40.67409
G1 X87.781 Y90.542 E40.91619
G1 X88.7 Y89.549 E41.06231
G0 F9000 X88.994 Y89.821
G1 F1800 X89.855 Y89.039 E41.18793
G1 X91.559 Y87.789 E41.41617
G1 X92.763 Y87.099 E41.56604
G1 X94.114 Y86.485 E41.72631
G1 X95.386 Y86.045 E41.87167
G1 X96.864 Y85.683 E42.03601
G1 X98.626 Y85.436 E42.22817
G1 X99.455 Y85.395 E42.31781
G1 X123.215 Y85.395 E44.88389
G1 X125.031 Y85.505 E45.08038
G1 X125.857 Y85.627 E45.17056
G1 X127.908 Y86.141 E45.39891
G1 X129.405 Y86.699 E45.57146
G1 X130.176 Y87.064 E45.66358
G1 X131.917 Y88.103 E45.88255
G1 X132.956 Y88.878 E46.02254
G1 X134.124 Y89.943 E46.19325
G1 X135.004 Y90.909 E46.33438
G1 X136.188 Y92.513 E46.54969
G1 X136.666 Y93.315 E46.65052
G1 X137.526 Y95.139 E46.86831
G1 X137.905 Y96.213 E46.99132
G1 X138.338 Y97.983 E47.18811
G1 X138.564 Y99.621 E47.36669
G1 X138.605 Y100.45 E47.45634
G1 X138.605 Y122.544 E49.84249
G1 X138.564 Y123.374 E49.93224
G1 X138.309 Y125.158 E50.12687
G1 X137.883 Y126.83 E50.31321
G1 X137.321 Y128.342 E50.48742
G1 X136.648 Y129.72 E50.65305
G1 X136.211 Y130.453 E50.74521
G1 X134.874 Y132.249 E50.98703
G1 X134.121 Y133.063 E51.10679
G1 X132.948 Y134.124 E51.2776
G1 X131.691 Y135.052 E51.44635
G1 X130.448 Y135.791 E51.60253
G1 X129.078 Y136.437 E51.76611
G1 X127.614 Y136.955 E51.93383
G1 X126.134 Y137.317 E52.09838
G1 X124.328 Y137.564 E52.29524
G1 X123.225 Y137.605 E52.41445
G1 X99.387 Y137.588 E54.98895
G1 X97.969 Y137.495 E55.14243
G1 X97.143 Y137.373 E55.2326
G1 X95.092 Y136.859 E55.46096
G1 X93.595 Y136.301 E55.6335
G1 X92.824 Y135.936 E55.72563
G1 X90.986 Y134.837 E55.95691
G1 X90.299 Y134.329 E56.04919
G1 X88.725 Y132.898 E56.27893
G1 X87.783 Y131.837 E56.43217
G1 X87.015 Y130.796 E56.57188
G1 X86.292 Y129.597 E56.72309
G1 X85.518 Y127.966 E56.91807
G1 X85.058 Y126.665 E57.0671
G1 X84.683 Y125.135 E57.23723
G1 X84.436 Y123.374 E57.42928
G1 X84.395 Y122.55 E57.51839
G1 X84.395 Y100.456 E59.90454
G1 X84.436 Y99.623 E59.99461
G1 X84.718 Y97.663 E60.20847
G1 X84.966 Y96.649 E60.32121
G1 X85.711 Y94.586 E60.5581
G1 X86.352 Y93.28 E60.71522
G1 X86.789 Y92.547 E60.80738
G1 X88.075 Y90.814 E61.04045
G1 X88.994 Y89.821 E61.18657
G0 F9000 X89.264 Y90.117
G1 F1800 X90.092 Y89.362 E61.30759
G1 X91.796 Y88.112 E61.53583
G1 X92.929 Y87.463 E61.67685
G1 X94.245 Y86.863 E61.83305
G1 X95.481 Y86.434 E61.97435
G1 X96.959 Y86.072 E62.13869
G1 X98.646 Y85.836 E62.32266
G1 X99.475 Y85.795 E62.41231
G1 X123.215 Y85.795 E64.97623
G1 X124.973 Y85.901 E65.16643
G1 X125.799 Y86.023 E65.25661
G1 X127.769 Y86.516 E65.47593
G1 X129.234 Y87.061 E65.64474
G1 X130.005 Y87.426 E65.73687
G1 X131.712 Y88.446 E65.95163
G1 X132.686 Y89.174 E66.08296
G1 X133.854 Y90.239 E66.25367
G1 X134.708 Y91.178 E66.39075
G1 X135.844 Y92.718 E66.59743
G1 X136.322 Y93.52 E66.69826
G1 X137.164 Y95.309 E66.9118
G1 X137.516 Y96.308 E67.0262
G1 X137.949 Y98.078 E67.22299
G1 X138.164 Y99.641 E67.39339
G1 X138.205 Y100.47 E67.48303
G1 X138.205 Y122.524 E69.86486
G1 X138.164 Y123.354 E69.95461
G1 X137.921 Y125.059 E70.14061
G1 X137.495 Y126.731 E70.32696
G1 X136.961 Y128.167 E70.49242
G1 X136.304 Y129.515 E70.65437
G1 X135.867 Y130.248 E70.74654
G1 X134.58 Y131.977 E70.97932
G1 X133.827 Y132.791 E71.09908
G1 X132.71 Y133.802 E71.26179
G1 X131.453 Y134.73 E71.43054
G1 X130.277 Y135.429 E71.57829
G1 X128.907 Y136.075 E71.74187
G1 X127.519 Y136.566 E71.90088
G1 X126.039 Y136.928 E72.06543
G1 X124.313 Y137.164 E72.25357
G1 X123.225 Y137.205 E72.37116
G1 X99.413 Y137.189 E74.94286
G1 X98.027 Y137.099 E75.09286
G1 X97.201 Y136.977 E75.18304
G1 X95.231 Y136.484 E75.40236
G1 X93.766 Y135.939 E75.57117
G1 X92.995 Y135.574 E75.6633
G1 X91.224 Y134.515 E75.88615
G1 X90.537 Y134.007 E75.97843
G1 X89.024 Y132.632 E76.19923
G1 X88.082 Y131.571 E76.35247
G1 X87.358 Y130.589 E76.48423
G1 X86.635 Y129.39 E76.63544
G1 X85.88 Y127.795 E76.82603
G1 X85.447 Y126.57 E76.96635
G1 X85.072 Y125.04 E77.13648
G1 X84.836 Y123.354 E77.32034
G1 X84.795 Y122.53 E77.40945
G1 X84.795 Y100.476 E79.79128
G1 X84.836 Y99.643 E79.88135
G1 X85.107 Y97.758 E80.08702
G1 X85.355 Y96.744 E80.19976
G1 X86.07 Y94.762 E80.42732
G1 X86.696 Y93.485 E80.58092
G1 X87.133 Y92.752 E80.67308
G1 X88.396 Y91.053 E80.90172
G1 X89.264 Y90.117 E81.03959
G0 F9000 X89.534 Y90.413
G1 F1800 X90.362 Y89.658 E81.1606
G1 X91.995 Y88.459 E81.3794
G1 X93.095 Y87.827 E81.51641
G1 X94.377 Y87.241 E81.66865
G1 X95.576 Y86.823 E81.80578
G1 X97.054 Y86.461 E81.97013
G1 X98.666 Y86.236 E82.14591
G1 X99.495 Y86.195 E82.23555
G1 X123.215 Y86.195 E84.79731
G1 X124.915 Y86.297 E84.98124
G1 X125.741 Y86.419 E85.07142
G1 X127.63 Y86.891 E85.2817
G1 X129.063 Y87.423 E85.44679
G1 X129.834 Y87.788 E85.53891
G1 X131.473 Y88.767 E85.7451
G1 X132.416 Y89.47 E85.87213
G1 X133.584 Y90.535 E86.04284
G1 X134.412 Y91.447 E86.17587
G1 X135.5 Y92.923 E86.37391
G1 X135.978 Y93.725 E86.47474
G1 X136.787 Y95.443 E86.67983
G1 X137.127 Y96.403 E86.78982
G1 X137.56 Y98.173 E86.98662
G1 X137.764 Y99.661 E87.14882
G1 X137.805 Y100.49 E87.23847
G1 X137.805 Y122.504 E89.61598
G1 X137.764 Y123.334 E89.70573
G1 X137.533 Y124.961 E89.88321
G1 X137.12 Y126.592 E90.06491
G1 X136.586 Y128.028 E90.23038
G1 X135.96 Y129.31 E90.38446
G1 X135.523 Y130.043 E90.47662
G1 X134.286 Y131.705 E90.70038
G1 X133.533 Y132.519 E90.82014
G1 X132.472 Y133.48 E90.97474
G1 X131.215 Y134.408 E91.14349
G1 X130.106 Y135.067 E91.28281
G1 X128.736 Y135.713 E91.44639
G1 X127.424 Y136.177 E91.59669
G1 X125.944 Y136.539 E91.76124
G1 X124.298 Y136.764 E91.94066
G1 X123.225 Y136.805 E92.05663
G1 X99.439 Y136.79 E94.62552
G1 X98.085 Y136.703 E94.77205
G1 X97.259 Y136.581 E94.86223
G1 X95.37 Y136.109 E95.07251
G1 X93.937 Y135.577 E95.2376
G1 X93.166 Y135.212 E95.32972
G1 X91.462 Y134.193 E95.54415
G1 X90.775 Y133.685 E95.63643
G1 X89.323 Y132.366 E95.84829
G1 X88.381 Y131.305 E96.00152
G1 X87.701 Y130.382 E96.12534
G1 X86.978 Y129.183 E96.27655
G1 X86.242 Y127.624 E96.46274
G1 X85.836 Y126.475 E96.59435
G1 X85.461 Y124.945 E96.76448
G1 X85.236 Y123.334 E96.94016
G1 X85.195 Y122.51 E97.02926
G1 X85.195 Y100.496 E99.40677
G1 X85.236 Y99.663 E99.49685
G1 X85.496 Y97.853 E99.69433
G1 X85.744 Y96.839 E99.80707
G1 X86.429 Y94.938 E100.0253
G1 X87.04 Y93.69 E100.17537
G1 X87.477 Y92.957 E100.26754
G1 X88.689 Y91.325 E100.48708
G1 X89.534 Y90.413 E100.62136
G0 F9000 X89.804 Y90.709
G1 F1800 X90.632 Y89.954 E100.74238
G1 X92.195 Y88.806 E100.95182
G1 X93.262 Y88.191 E101.08483
G1 X94.509 Y87.619 E101.233
G1 X95.671 Y87.212 E101.36597
G1 X97.149 Y86.85 E101.53031
G1 X98.686 Y86.636 E101.69791
G1 X99.515 Y86.595 E101.78755
G1 X123.215 Y86.595 E104.34715
G1 X124.857 Y86.693 E104.5248
G1 X125.683 Y86.815 E104.61498
G1 X127.491 Y87.266 E104.81622
G1 X128.892 Y87.785 E104.97758
G1 X129.663 Y88.15 E105.06971
G1 X131.268 Y89.11 E105.27169
G1 X132.146 Y89.766 E105.39006
G1 X133.314 Y90.831 E105.56077
G1 X134.116 Y91.716 E105.68976
G1 X135.156 Y93.128 E105.87915
G1 X135.634 Y93.93 E105.97999
G1 X136.425 Y95.613 E106.18082
G1 X136.738 Y96.498 E106.28221
G1 X137.171 Y98.268 E106.479
G1 X137.364 Y99.681 E106.63302
G1 X137.405 Y100.51 E106.72266
G1 X137.405 Y122.484 E109.09586
G1 X137.364 Y123.314 E109.18561
G1 X137.145 Y124.863 E109.35456
G1 X136.745 Y126.453 E109.53163
G1 X136.226 Y127.853 E109.69289
G1 X135.616 Y129.105 E109.8433
G1 X135.179 Y129.838 E109.93546
G1 X133.992 Y131.433 E110.15019
G1 X133.239 Y132.247 E110.26995
G1 X132.204 Y133.183 E110.42066
G1 X131.01 Y134.064 E110.58091
G1 X129.935 Y134.705 E110.71609
G1 X128.565 Y135.351 E110.87967
G1 X127.329 Y135.788 E111.02126
G1 X125.849 Y136.15 E111.18581
G1 X124.282 Y136.364 E111.35662
G1 X123.225 Y136.405 E111.47086
G1 X99.464 Y136.391 E114.03705
G1 X98.143 Y136.307 E114.18
G1 X97.317 Y136.185 E114.27018
G1 X95.509 Y135.734 E114.47143
G1 X94.108 Y135.215 E114.63278
G1 X93.337 Y134.85 E114.72491
G1 X91.7 Y133.871 E114.93091
G1 X91.013 Y133.363 E115.02319
G1 X89.622 Y132.1 E115.2261
G1 X88.68 Y131.039 E115.37934
G1 X88.044 Y130.175 E115.4952
G1 X87.321 Y128.976 E115.64642
G1 X86.604 Y127.454 E115.82812
G1 X86.225 Y126.38 E115.95112
G1 X85.85 Y124.85 E116.12125
G1 X85.636 Y123.314 E116.28874
G1 X85.595 Y122.49 E116.37784
G1 X85.595 Y100.516 E118.75104
G1 X85.636 Y99.683 E118.84111
G1 X85.885 Y97.948 E119.03041
G1 X86.133 Y96.934 E119.14315
G1 X86.788 Y95.114 E119.35205
G1 X87.384 Y93.895 E119.4986
G1 X87.821 Y93.162 E119.59076
G1 X88.983 Y91.597 E119.80128
G1 X89.804 Y90.709 E119.93189
G0 F9000 X90.074 Y91.005
G1 F1800 X90.902 Y90.25 E120.05291
G1 X92.395 Y89.153 E120.253
G1 X93.462 Y88.538 E120.38601
G1 X94.642 Y87.996 E120.52625
G1 X95.766 Y87.601 E120.65492
G1 X97.244 Y87.239 E120.81926
G1 X98.706 Y87.036 E120.97867
G1 X99.535 Y86.995 E121.06831
G1 X123.215 Y86.995 E123.62575
G1 X124.799 Y87.089 E123.79712
G1 X125.625 Y87.211 E123.8873
G1 X127.352 Y87.641 E124.07951
G1 X128.721 Y88.147 E124.23714
G1 X129.492 Y88.512 E124.32927
G1 X131.029 Y89.431 E124.52267
G1 X131.876 Y90.062 E124.63674
G1 X133.044 Y91.127 E124.80745
G1 X133.794 Y91.954 E124.92803
G1 X134.812 Y93.333 E125.11314
G1 X135.29 Y94.135 E125.21398
G1 X136.048 Y95.747 E125.40636
G1 X136.349 Y96.593 E125.50334
G1 X136.782 Y98.363 E125.70013
G1 X136.964 Y99.701 E125.84597
G1 X137.005 Y100.53 E125.93561
G1 X137.005 Y122.464 E128.30448
G1 X136.964 Y123.294 E128.39423
G1 X136.757 Y124.766 E128.55477
G1 X136.37 Y126.314 E128.7271
G1 X135.851 Y127.714 E128.88836
G1 X135.272 Y128.9 E129.03089
G1 X134.835 Y129.633 E129.12306
G1 X133.698 Y131.161 E129.32876
G1 X132.945 Y131.975 E129.44852
G1 X131.936 Y132.886 E129.59533
G1 X130.805 Y133.72 E129.7471
G1 X129.73 Y134.361 E129.88227
G1 X128.395 Y134.989 E130.04161
G1 X127.234 Y135.399 E130.17459
G1 X125.754 Y135.761 E130.33914
G1 X124.266 Y135.964 E130.50133
G1 X123.225 Y136.005 E130.61384
G1 X99.489 Y135.992 E133.17733
G1 X98.201 Y135.911 E133.31671
G1 X97.375 Y135.789 E133.40689
G1 X95.648 Y135.359 E133.5991
G1 X94.279 Y134.853 E133.75673
G1 X93.508 Y134.488 E133.84885
G1 X91.938 Y133.549 E134.04643
G1 X91.251 Y133.041 E134.1387
G1 X89.921 Y131.834 E134.33268
G1 X88.979 Y130.773 E134.48591
G1 X88.387 Y129.968 E134.59383
G1 X87.664 Y128.769 E134.74504
G1 X86.966 Y127.284 E134.92225
G1 X86.614 Y126.285 E135.03665
G1 X86.239 Y124.755 E135.20678
G1 X86.036 Y123.294 E135.36608
G1 X85.995 Y122.47 E135.45518
G1 X85.995 Y100.536 E137.82406
G1 X86.036 Y99.703 E137.91413
G1 X86.274 Y98.043 E138.09524
G1 X86.522 Y97.029 E138.20798
G1 X87.148 Y95.289 E138.40769
G1 X87.728 Y94.1 E138.55057
G1 X88.165 Y93.367 E138.64273
G1 X89.304 Y91.836 E138.84882
G1 X90.074 Y91.005 E138.97118
G0 F9000 X90.344 Y91.301
G1 F1800 X91.172 Y90.546 E139.09219
G1 X92.595 Y89.499 E139.28299
G1 X93.63 Y88.901 E139.41209
G1 X94.775 Y88.373 E139.54827
G1 X95.861 Y87.99 E139.67263
G1 X97.339 Y87.628 E139.83698
G1 X98.726 Y87.436 E139.9882
G1 X99.555 Y87.395 E140.07784
G1 X123.215 Y87.395 E142.63312
G1 X124.741 Y87.485 E142.79822
G1 X125.567 Y87.607 E142.88839
G1 X127.214 Y88.016 E143.07167
G1 X128.55 Y88.509 E143.22547
G1 X129.321 Y88.874 E143.3176
G1 X130.824 Y89.774 E143.5068
G1 X131.606 Y90.358 E143.61221
G1 X132.774 Y91.423 E143.78292
G1 X133.497 Y92.222 E143.89929
G1 X134.468 Y93.538 E144.07592
G1 X134.946 Y94.34 E144.17675
G1 X135.671 Y95.882 E144.36078
G1 X135.96 Y96.688 E144.45325
G1 X136.393 Y98.458 E144.65005
G1 X136.564 Y99.721 E144.7877
G1 X136.605 Y100.55 E144.87734
G1 X136.605 Y122.444 E147.24189
G1 X136.564 Y123.274 E147.33164
G1 X136.369 Y124.67 E147.48387
G1 X135.995 Y126.175 E147.65136
G1 X135.491 Y127.539 E147.8084
G1 X134.928 Y128.695 E147.94727
G1 X134.491 Y129.428 E148.03944
G1 X133.404 Y130.889 E148.2361
G1 X132.651 Y131.703 E148.35586
G1 X131.668 Y132.589 E148.49879
G1 X130.6 Y133.376 E148.64206
