;FLAVOR:UltiGCode
;TIME:3201
;MATERIAL:6135
;MATERIAL2:0
;NOZZLE_DIAMETER:0.4
;MINX:83.595
;MINY:84.594
;MINZ:0.27
;MAXX:139.405
;MAXY:138.405
;MAXZ:16.02
;TARGET_MACHINE.NAME:Ultimaker 2+
;Generated with Cura_SteamEngine 5.6.0
M82 ;absolute extrusion mode
G0 F3000 Y50 ;avoid prime blob
G92 E0
G92 E0
G10
;LAYER_COUNT:106
;LAYER:0
M107
G0 F9000 X88.248 Y89.435 Z0.27
;TYPE:SKIRT
G11
G1 F1800 X89.675 Y88.153 E0.20718
G1 X90.939 Y87.233 E0.37602
G1 X92.059 Y86.565 E0.51686
G1 X93.827 Y85.74 E0.72757
G1 X95.233 Y85.256 E0.88816
G1 X96.643 Y84.911 E1.04493
G1 X98.65 Y84.636 E1.26372
G1 X99.805 Y84.595 E1.38853
G1 X104.305 Y84.594 E1.87453
G1 X106.284 Y84.999 E2.0927
G1 X108.094 Y86.09 E2.32094
G1 X110.208 Y88.27 E2.6489
G1 X111.205 Y91.345 E2.99802
G1 X111.205 Y99.485 E3.87714
G1 X111.795 Y99.485 E3.94086
G1 X111.795 Y91.025 E4.85454
G1 X112.685 Y88.407 E5.15318
G1 X112.885 Y88.091 E5.19357
G1 X115.452 Y85.598 E5.58003
G1 X118.541 Y84.595 E5.93078
G1 X123.666 Y84.614 E6.48429
G1 X125.183 Y84.715 E6.64849
G1 X126.001 Y84.837 E6.73781
G1 X128.263 Y85.403 E6.98964
G1 X129.072 Y85.693 E7.08245
G1 X131.173 Y86.696 E7.33389
G1 X131.904 Y87.135 E7.42598
G1 X133.799 Y88.541 E7.68082
G1 X134.615 Y89.296 E7.80089
G1 X135.612 Y90.389 E7.96066
G1 X136.876 Y92.104 E8.19075
G1 X137.39 Y92.973 E8.29979
G1 X138.25 Y94.797 E8.51758
G1 X138.683 Y96.023 E8.65801
G1 X139.116 Y97.793 E8.8548
G1 X139.364 Y99.581 E9.04976
G1 X139.405 Y100.41 E9.1394
G1 X139.405 Y122.584 E11.53419
G1 X139.364 Y123.414 E11.62394
G1 X139.085 Y125.356 E11.83583
G1 X138.659 Y127.028 E12.02217
G1 X138.056 Y128.656 E12.20967
G1 X137.336 Y130.13 E12.38684
G1 X136.899 Y130.863 E12.479
G1 X135.462 Y132.793 E12.73888
G1 X134.715 Y133.601 E12.85772
G1 X133.526 Y134.682 E13.03127
G1 X132.057 Y135.766 E13.22844
G1 X130.772 Y136.525 E13.38962
G1 X129.448 Y137.149 E13.5477
G1 X127.767 Y137.744 E13.74028
G1 X126.357 Y138.089 E13.89706
G1 X124.358 Y138.364 E14.11498
G1 X123.225 Y138.405 E14.23742
G1 X99.335 Y138.386 E16.81755
G1 X97.817 Y138.285 E16.98185
G1 X96.999 Y138.163 E17.07117
G1 X94.836 Y137.622 E17.31197
G1 X93.62 Y137.176 E17.45186
G1 X91.883 Y136.34 E17.66005
G1 X90.984 Y135.798 E17.77342
G1 X89.264 Y134.512 E18.00536
G1 X88.428 Y133.744 E18.12797
G1 X87.144 Y132.317 E18.33529
G1 X86.329 Y131.21 E18.48375
G1 X85.606 Y130.011 E18.63496
G1 X84.764 Y128.232 E18.84753
G1 X84.28 Y126.855 E19.00516
G1 X83.905 Y125.325 E19.17529
G1 X83.636 Y123.414 E19.38372
G1 X83.595 Y122.59 E19.47282
G1 X83.595 Y100.416 E21.86761
G1 X83.636 Y99.583 E21.95768
G1 X83.927 Y97.567 E22.17767
G1 X84.319 Y96.035 E22.34845
G1 X84.974 Y94.255 E22.5533
G1 X85.34 Y93.482 E22.64566
G1 X86.474 Y91.588 E22.88408
G1 X87.39 Y90.376 E23.04815
G1 X88.248 Y89.435 E23.18568
G0 F9000 X88.544 Y89.705
G1 F1800 X89.911 Y88.476 E23.38421
G1 X91.144 Y87.577 E23.54902
G1 X92.264 Y86.909 E23.68986
G1 X93.957 Y86.118 E23.89167
G1 X95.328 Y85.645 E24.0483
G1 X96.738 Y85.3 E24.20508
G1 X98.664 Y85.036 E24.41503
G1 X99.805 Y84.995 E24.53834
G1 X104.264 Y84.994 E25.01991
G1 X106.137 Y85.377 E25.22638
G1 X107.841 Y86.405 E25.44131
G1 X109.856 Y88.482 E25.75384
G1 X110.805 Y91.409 E26.08616
G1 X110.805 Y99.885 E27.00156
G1 X112.195 Y99.885 E27.15168
G1 X112.195 Y91.092 E28.10133
G1 X113.064 Y88.536 E28.39289
G1 X113.164 Y88.378 E28.41309
G1 X115.665 Y85.949 E28.78962
G1 X118.603 Y84.995 E29.12323
G1 X123.64 Y85.013 E29.66723
G1 X125.124 Y85.111 E29.82785
G1 X125.942 Y85.233 E29.91717
G1 X128.128 Y85.78 E30.16054
G1 X128.937 Y86.07 E30.25336
G1 X130.967 Y87.039 E30.49629
G1 X131.698 Y87.478 E30.58838
G1 X133.528 Y88.835 E30.83443
G1 X134.319 Y89.566 E30.95076
G1 X135.316 Y90.659 E31.11053
G1 X136.532 Y92.308 E31.33181
G1 X137.028 Y93.144 E31.43679
G1 X137.888 Y94.968 E31.65458
G1 X138.294 Y96.118 E31.7863
G1 X138.727 Y97.888 E31.98309
G1 X138.964 Y99.601 E32.16986
G1 X139.005 Y100.43 E32.2595
G1 X139.005 Y122.564 E34.64997
G1 X138.964 Y123.394 E34.73972
G1 X138.697 Y125.257 E34.94298
G1 X138.271 Y126.929 E35.12933
G1 X137.696 Y128.481 E35.30808
G1 X136.992 Y129.925 E35.48158
G1 X136.555 Y130.658 E35.57374
G1 X135.168 Y132.521 E35.82458
G1 X134.421 Y133.329 E35.94343
G1 X133.288 Y134.36 E36.10887
G1 X131.819 Y135.444 E36.30604
G1 X130.601 Y136.163 E36.45879
G1 X129.277 Y136.787 E36.61687
G1 X127.672 Y137.355 E36.80074
G1 X126.262 Y137.7 E36.95752
G1 X124.343 Y137.964 E37.16672
G1 X123.225 Y138.005 E37.28755
G1 X99.361 Y137.987 E39.86486
G1 X97.876 Y137.889 E40.02559
G1 X97.058 Y137.767 E40.11491
G1 X94.974 Y137.246 E40.34691
G1 X93.758 Y136.8 E40.48679
G1 X92.09 Y135.997 E40.68672
G1 X91.191 Y135.455 E40.8001
G1 X89.535 Y134.217 E41.0234
G1 X88.699 Y133.449 E41.146
G1 X87.442 Y132.05 E41.34912
G1 X86.672 Y131.003 E41.48948
G1 X85.949 Y129.804 E41.6407
G1 X85.141 Y128.099 E41.84447
G1 X84.669 Y126.76 E41.9978
G1 X84.294 Y125.23 E42.16793
G1 X84.036 Y123.394 E42.36817
G1 X83.995 Y122.57 E42.45727
G1 X83.995 Y100.436 E44.84774
G1 X84.036 Y99.603 E44.93782
G1 X84.315 Y97.666 E45.14917
G1 X84.695 Y96.173 E45.31556
G1 X85.336 Y94.426 E45.51653
G1 X85.702 Y93.653 E45.6089
G1 X86.793 Y91.829 E45.83844
G1 X87.686 Y90.646 E45.99852
G1 X88.544 Y89.705 E46.13605
G0 F9000 X88.84 Y89.975
G1 F1800 X90.147 Y88.799 E46.32594
G1 X91.349 Y87.921 E46.4867
G1 X92.469 Y87.253 E46.62754
G1 X94.088 Y86.496 E46.82056
G1 X95.423 Y86.034 E46.97313
G1 X96.833 Y85.689 E47.1299
G1 X98.679 Y85.436 E47.33113
G1 X99.805 Y85.395 E47.45282
G1 X104.223 Y85.394 E47.92996
G1 X105.988 Y85.755 E48.12453
G1 X107.591 Y86.722 E48.32671
G1 X109.504 Y88.694 E48.62344
G1 X110.405 Y91.473 E48.93895
G1 X110.405 Y100.285 E49.89065
G1 X112.595 Y100.285 E50.12717
G1 X112.595 Y91.159 E51.11277
G1 X113.443 Y88.665 E51.39727
G1 X115.878 Y86.3 E51.76387
G1 X118.665 Y85.395 E52.08034
G1 X123.614 Y85.412 E52.61484
G1 X125.065 Y85.507 E52.77188
G1 X125.883 Y85.629 E52.8612
G1 X127.993 Y86.157 E53.09611
G1 X128.802 Y86.447 E53.18892
G1 X130.761 Y87.382 E53.42336
G1 X131.492 Y87.821 E53.51545
G1 X133.257 Y89.129 E53.75271
G1 X134.023 Y89.836 E53.86529
G1 X135.02 Y90.929 E54.02506
G1 X136.188 Y92.513 E54.23761
G1 X136.666 Y93.315 E54.33845
G1 X137.526 Y95.139 E54.55624
G1 X137.905 Y96.213 E54.67924
G1 X138.338 Y97.983 E54.87604
G1 X138.564 Y99.621 E55.05462
G1 X138.605 Y100.45 E55.14426
G1 X138.605 Y122.544 E57.53041
G1 X138.564 Y123.374 E57.62016
G1 X138.309 Y125.158 E57.81479
G1 X137.883 Y126.83 E58.00113
G1 X137.321 Y128.342 E58.17535
G1 X136.648 Y129.72 E58.34097
G1 X136.211 Y130.453 E58.43313
G1 X134.874 Y132.249 E58.67495
G1 X134.127 Y133.057 E58.79379
G1 X133.05 Y134.038 E58.95113
G1 X131.581 Y135.122 E59.1483
G1 X130.43 Y135.801 E59.29262
G1 X129.106 Y136.425 E59.4507
G1 X127.577 Y136.966 E59.62586
G1 X126.167 Y137.311 E59.78264
G1 X124.328 Y137.564 E59.98312
G1 X123.225 Y137.605 E60.10233
G1 X99.387 Y137.588 E62.67683
G1 X97.935 Y137.493 E62.83398
G1 X97.117 Y137.371 E62.9233
G1 X95.111 Y136.87 E63.14661
G1 X93.931 Y136.439 E63.28228
G1 X92.297 Y135.654 E63.47806
G1 X91.398 Y135.112 E63.59143
G1 X89.806 Y133.922 E63.80609
G1 X88.97 Y133.154 E63.9287
G1 X87.764 Y131.813 E64.12348
G1 X87.015 Y130.796 E64.25989
G1 X86.292 Y129.597 E64.4111
G1 X85.518 Y127.966 E64.60608
G1 X85.058 Y126.665 E64.75511
G1 X84.683 Y125.135 E64.92524
G1 X84.436 Y123.374 E65.11729
G1 X84.395 Y122.55 E65.20639
G1 X84.395 Y100.456 E67.59254
G1 X84.436 Y99.623 E67.68262
G1 X84.703 Y97.765 E67.88534
G1 X85.083 Y96.272 E68.05173
G1 X85.698 Y94.597 E68.24444
G1 X86.064 Y93.824 E68.3368
G1 X87.136 Y92.035 E68.56205
G1 X87.982 Y90.916 E68.71355
G1 X88.84 Y89.975 E68.85108
G0 F9000 X89.136 Y90.245
G1 F1800 X90.414 Y89.097 E69.03662
G1 X91.554 Y88.265 E69.18904
G1 X92.674 Y87.597 E69.32988
G1 X94.257 Y86.859 E69.51851
G1 X95.518 Y86.423 E69.66261
G1 X96.928 Y86.078 E69.81938
G1 X98.694 Y85.836 E70.01189
G1 X99.805 Y85.795 E70.13196
G1 X104.182 Y85.794 E70.60468
G1 X105.839 Y86.133 E70.78734
G1 X107.341 Y87.039 E70.97678
G1 X109.153 Y88.907 E71.25785
G1 X110.005 Y91.534 E71.55611
G1 X110.005 Y100.685 E72.54442
G1 X112.995 Y100.685 E72.86734
G1 X112.995 Y91.226 E73.88891
G1 X113.791 Y88.885 E74.15596
G1 X116.091 Y86.651 E74.50224
G1 X118.727 Y85.795 E74.80157
G1 X123.588 Y85.811 E75.32656
G1 X125.006 Y85.903 E75.48002
G1 X125.824 Y86.025 E75.56934
G1 X127.858 Y86.534 E75.79579
G1 X128.667 Y86.824 E75.88861
G1 X130.555 Y87.725 E76.11454
G1 X131.286 Y88.164 E76.20663
G1 X132.986 Y89.423 E76.4351
G1 X133.727 Y90.106 E76.54393
G1 X134.724 Y91.199 E76.70371
G1 X135.844 Y92.718 E76.90753
G1 X136.322 Y93.52 E77.00837
G1 X137.164 Y95.309 E77.22191
G1 X137.516 Y96.308 E77.3363
G1 X137.949 Y98.078 E77.5331
G1 X138.164 Y99.641 E77.70349
G1 X138.205 Y100.47 E77.79314
G1 X138.205 Y122.524 E80.17497
G1 X138.164 Y123.354 E80.26472
G1 X137.921 Y125.059 E80.45072
G1 X137.495 Y126.731 E80.63706
G1 X136.961 Y128.167 E80.80253
G1 X136.304 Y129.515 E80.96448
G1 X135.867 Y130.248 E81.05665
G1 X134.58 Y131.977 E81.28943
G1 X133.833 Y132.785 E81.40827
G1 X132.781 Y133.742 E81.56187
G1 X131.377 Y134.778 E81.75031
G1 X130.259 Y135.439 E81.89058
G1 X128.935 Y136.063 E82.04866
G1 X127.482 Y136.577 E82.21511
G1 X126.072 Y136.922 E82.37188
G1 X124.313 Y137.164 E82.56365
G1 X123.225 Y137.205 E82.68123
G1 X99.413 Y137.189 E85.25293
G1 X97.994 Y137.097 E85.4065
G1 X97.176 Y136.975 E85.49582
G1 X95.248 Y136.494 E85.71043
G1 X94.068 Y136.063 E85.8461
G1 X92.504 Y135.311 E86.03353
G1 X91.605 Y134.769 E86.1469
G1 X90.077 Y133.627 E86.35292
G1 X89.241 Y132.859 E86.47552
G1 X88.062 Y131.546 E86.66611
G1 X87.358 Y130.589 E86.79442
G1 X86.635 Y129.39 E86.94563
G1 X85.88 Y127.795 E87.13621
G1 X85.447 Y126.57 E87.27654
G1 X85.072 Y125.04 E87.44667
G1 X84.836 Y123.354 E87.63053
G1 X84.795 Y122.53 E87.71963
G1 X84.795 Y100.476 E90.10146
G1 X84.836 Y99.643 E90.19154
G1 X85.091 Y97.864 E90.38563
G1 X85.471 Y96.371 E90.55202
G1 X86.06 Y94.768 E90.73646
G1 X86.426 Y93.995 E90.82883
G1 X87.455 Y92.276 E91.0452
G1 X88.278 Y91.186 E91.19271
G1 X89.136 Y90.245 E91.33024
G0 F9000 X89.432 Y90.515
G1 F1800 X90.65 Y89.42 E91.50713
G1 X91.759 Y88.609 E91.65551
G1 X92.879 Y87.941 E91.79635
G1 X94.388 Y87.237 E91.97618
G1 X95.613 Y86.812 E92.11622
G1 X97.023 Y86.467 E92.27299
G1 X98.709 Y86.236 E92.45678
G1 X99.805 Y86.195 E92.57523
G1 X104.141 Y86.194 E93.04352
G1 X105.692 Y86.511 E93.21449
G1 X107.091 Y87.355 E93.39095
G1 X108.802 Y89.119 E93.65636
G1 X109.605 Y91.595 E93.93748
G1 X109.605 Y101.085 E94.9624
G1 X113.395 Y101.085 E95.37172
G1 X113.395 Y91.293 E96.42925
G1 X114.139 Y89.105 E96.67884
G1 X116.304 Y87.002 E97.00481
G1 X118.789 Y86.195 E97.28699
G1 X123.562 Y86.21 E97.80248
G1 X124.947 Y86.299 E97.95237
G1 X125.765 Y86.421 E98.04169
G1 X127.723 Y86.911 E98.25967
G1 X128.532 Y87.201 E98.35249
G1 X130.349 Y88.068 E98.56992
G1 X131.08 Y88.507 E98.66201
G1 X132.715 Y89.718 E98.88175
G1 X133.431 Y90.376 E98.98677
G1 X134.428 Y91.469 E99.14655
G1 X135.5 Y92.923 E99.34165
G1 X135.978 Y93.725 E99.44248
G1 X136.787 Y95.443 E99.64757
G1 X137.127 Y96.403 E99.75756
G1 X137.56 Y98.173 E99.95435
G1 X137.764 Y99.661 E100.11656
G1 X137.805 Y100.49 E100.2062
G1 X137.805 Y122.504 E102.58372
G1 X137.764 Y123.334 E102.67346
G1 X137.533 Y124.961 E102.85094
G1 X137.12 Y126.592 E103.03265
G1 X136.586 Y128.028 E103.19811
G1 X135.96 Y129.31 E103.3522
G1 X135.523 Y130.043 E103.44436
G1 X134.286 Y131.705 E103.66812
G1 X133.539 Y132.513 E103.78696
G1 X132.512 Y133.446 E103.93681
G1 X131.173 Y134.434 E104.11653
G1 X130.088 Y135.077 E104.25274
G1 X128.764 Y135.701 E104.41082
G1 X127.387 Y136.188 E104.56856
G1 X125.977 Y136.533 E104.72533
G1 X124.298 Y136.764 E104.90837
G1 X123.225 Y136.805 E105.02434
G1 X99.439 Y136.79 E107.59323
G1 X98.053 Y136.701 E107.74323
G1 X97.235 Y136.579 E107.83255
G1 X95.385 Y136.118 E108.03846
G1 X94.205 Y135.687 E108.17413
G1 X92.711 Y134.968 E108.3532
G1 X91.812 Y134.426 E108.46657
G1 X90.348 Y133.332 E108.66395
G1 X89.512 Y132.564 E108.78655
G1 X88.384 Y131.309 E108.9688
G1 X87.701 Y130.382 E109.09315
G1 X86.978 Y129.183 E109.24437
G1 X86.242 Y127.624 E109.43056
G1 X85.836 Y126.475 E109.56217
G1 X85.461 Y124.945 E109.7323
G1 X85.236 Y123.334 E109.90798
G1 X85.195 Y122.51 E109.99708
G1 X85.195 Y100.496 E112.37459
G1 X85.236 Y99.663 E112.46466
G1 X85.479 Y97.962 E112.65024
G1 X85.847 Y96.509 E112.81211
G1 X86.422 Y94.939 E112.99269
G1 X86.788 Y94.166 E113.08506
G1 X87.775 Y92.517 E113.29261
G1 X88.574 Y91.456 E113.43606
G1 X89.432 Y90.515 E113.57359
G0 F9000 X89.728 Y90.785
G1 F1800 X90.917 Y89.718 E113.74613
G1 X91.964 Y88.953 E113.88617
G1 X93.084 Y88.285 E114.02701
G1 X94.52 Y87.615 E114.19815
G1 X95.708 Y87.201 E114.33402
G1 X97.118 Y86.856 E114.49079
G1 X98.724 Y86.636 E114.66586
G1 X99.805 Y86.595 E114.78269
G1 X104.1 Y86.594 E115.24655
G1 X105.543 Y86.889 E115.40562
G1 X106.843 Y87.673 E115.56958
G1 X108.451 Y89.331 E115.81902
G1 X109.205 Y91.656 E116.083
G1 X109.205 Y101.485 E117.14453
G1 X113.795 Y101.485 E117.64025
G1 X113.795 Y91.36 E118.73375
G1 X114.487 Y89.325 E118.96589
G1 X116.517 Y87.353 E119.27154
G1 X118.851 Y86.595 E119.53658
G1 X123.537 Y86.609 E120.04267
G1 X124.888 Y86.695 E120.18887
G1 X125.706 Y86.817 E120.27819
G1 X127.588 Y87.288 E120.48771
G1 X128.397 Y87.578 E120.58053
G1 X130.143 Y88.411 E120.78946
G1 X130.874 Y88.85 E120.88155
G1 X132.444 Y90.013 E121.09256
G1 X133.16 Y90.671 E121.19759
G1 X134.132 Y91.738 E121.35347
G1 X135.156 Y93.128 E121.53993
G1 X135.634 Y93.93 E121.64076
G1 X136.425 Y95.613 E121.8416
G1 X136.738 Y96.498 E121.94298
G1 X137.171 Y98.268 E122.13978
G1 X137.364 Y99.681 E122.2938
G1 X137.405 Y100.51 E122.38344
G1 X137.405 Y122.484 E124.75663
G1 X137.364 Y123.314 E124.84638
G1 X137.145 Y124.863 E125.01534
G1 X136.745 Y126.453 E125.19241
G1 X136.226 Y127.853 E125.35366
G1 X135.616 Y129.105 E125.50407
G1 X135.179 Y129.838 E125.59624
G1 X133.992 Y131.433 E125.81097
G1 X133.245 Y132.241 E125.92981
G1 X132.243 Y133.15 E126.07592
G1 X130.969 Y134.09 E126.24691
G1 X129.917 Y134.715 E126.37907
G1 X128.593 Y135.339 E126.53714
G1 X127.292 Y135.799 E126.68618
G1 X125.882 Y136.144 E126.84295
G1 X124.282 Y136.364 E127.01737
G1 X123.225 Y136.405 E127.13162
G1 X99.464 Y136.391 E129.6978
G1 X98.112 Y136.305 E129.84411
G1 X97.294 Y136.183 E129.93344
G1 X95.522 Y135.742 E130.13065
G1 X94.342 Y135.311 E130.26632
G1 X92.918 Y134.625 E130.43703
G1 X92.019 Y134.083 E130.5504
G1 X90.619 Y133.037 E130.73915
G1 X89.783 Y132.269 E130.86175
G1 X88.682 Y131.042 E131.03979
G1 X88.044 Y130.175 E131.15605
G1 X87.321 Y128.976 E131.30726
G1 X86.604 Y127.454 E131.48896
G1 X86.225 Y126.38 E131.61197
G1 X85.85 Y124.85 E131.7821
G1 X85.636 Y123.314 E131.94959
G1 X85.595 Y122.49 E132.03869
G1 X85.595 Y100.516 E134.41188
G1 X85.636 Y99.683 E134.50195
G1 X85.867 Y98.06 E134.679
G1 X86.223 Y96.646 E134.83648
G1 X86.784 Y95.11 E135.01309
G1 X87.15 Y94.337 E135.10546
G1 X88.095 Y92.757 E135.30429
G1 X88.87 Y91.726 E135.44359
G1 X89.728 Y90.785 E135.58112
G0 F9000 X90.024 Y91.055
G1 F1800 X91.184 Y90.016 E135.74931
G1 X92.169 Y89.297 E135.88101
G1 X93.289 Y88.629 E136.02185
G1 X94.652 Y87.993 E136.18429
G1 X95.803 Y87.59 E136.316
G1 X97.213 Y87.245 E136.47277
G1 X98.739 Y87.036 E136.63912
G1 X99.805 Y86.995 E136.75433
G1 X104.059 Y86.994 E137.21376
G1 X105.394 Y87.267 E137.36093
G1 X106.595 Y87.991 E137.51238
G1 X108.1 Y89.543 E137.74587
G1 X108.805 Y91.717 E137.99269
G1 X108.805 Y101.885 E139.09084
G1 X114.195 Y101.885 E139.67296
G1 X114.195 Y91.427 E140.80242
G1 X114.835 Y89.545 E141.01711
G1 X116.73 Y87.704 E141.30245
G1 X118.913 Y86.995 E141.55034
G1 X123.512 Y87.008 E142.04703
G1 X124.829 Y87.091 E142.18955
G1 X125.647 Y87.213 E142.27887
G1 X127.453 Y87.665 E142.47993
G1 X128.262 Y87.955 E142.57275
G1 X129.937 Y88.754 E142.77318
G1 X130.668 Y89.193 E142.86527
G1 X132.173 Y90.308 E143.06755
G1 X132.889 Y90.966 E143.17258
G1 X133.81 Y91.975 E143.32012
G1 X134.812 Y93.333 E143.50239
G1 X135.29 Y94.135 E143.60322
G1 X136.048 Y95.747 E143.7956
G1 X136.349 Y96.593 E143.89258
G1 X136.782 Y98.363 E144.08938
G1 X136.964 Y99.701 E144.23521
G1 X137.005 Y100.53 E144.32485
G1 X137.005 Y122.464 E146.69373
G1 X136.964 Y123.294 E146.78347
