;FLAVOR:UltiGCode
;TIME:1417
;MATERIAL:2776
;MATERIAL2:0
;NOZZLE_DIAMETER:0.4
;MINX:87.795
;MINY:86.295
;MINZ:0.27
;MAXX:135.205
;MAXY:136.705
;MAXZ:5.97
;TARGET_MACHINE.NAME:Ultimaker 2+
;Generated with Cura_SteamEngine 5.6.0
M82 ;absolute extrusion mode
G0 F3000 Y50 ;avoid prime blob
G92 E0
G92 E0
G10
;LAYER_COUNT:39
;LAYER:0
M107
G0 F9000 X88.885 Y89.791 Z0.27
;TYPE:SKIRT
G11
G1 F1800 X91.452 Y87.298 E0.38646
G1 X94.524 Y86.295 E0.73547
G1 X128.775 Y86.295 E4.43458
G1 X131.393 Y87.185 E4.73322
G1 X131.709 Y87.385 E4.77361
G1 X134.202 Y89.952 E5.16007
G1 X135.205 Y93.024 E5.50908
G1 X135.205 Y129.884 E9.48996
G1 X134.785 Y131.812 E9.70307
G1 X133.675 Y133.632 E9.9333
G1 X131.529 Y135.714 E10.25622
G1 X128.472 Y136.705 E10.60329
G1 X94.616 Y136.705 E14.25974
G1 X92.688 Y136.285 E14.47284
G1 X90.868 Y135.175 E14.70308
G1 X88.786 Y133.029 E15.026
G1 X87.795 Y129.972 E15.37307
G1 X87.795 Y92.725 E19.39574
G1 X88.685 Y90.107 E19.69438
G1 X88.885 Y89.791 E19.73477
G0 F9000 X89.164 Y90.078
G1 F1800 X91.665 Y87.649 E20.1113
G1 X94.587 Y86.695 E20.44327
G1 X128.708 Y86.695 E24.12834
G1 X131.264 Y87.564 E24.4199
G1 X131.422 Y87.664 E24.4401
G1 X133.851 Y90.165 E24.81663
G1 X134.805 Y93.087 E25.1486
G1 X134.805 Y129.84 E29.11792
G1 X134.408 Y131.663 E29.31942
G1 X133.362 Y133.378 E29.53637
G1 X131.317 Y135.362 E29.84409
G1 X128.408 Y136.305 E30.17436
G1 X94.66 Y136.305 E33.81914
G1 X92.837 Y135.908 E34.02064
G1 X91.122 Y134.862 E34.23759
G1 X89.138 Y132.817 E34.54531
G1 X88.195 Y129.908 E34.87558
G1 X88.195 Y92.792 E38.88411
G1 X89.064 Y90.236 E39.17568
G1 X89.164 Y90.078 E39.19587
G0 F9000 X89.443 Y90.365
G1 F1800 X91.878 Y88 E39.56247
G1 X94.65 Y87.095 E39.8774
G1 X128.641 Y87.095 E43.54843
G1 X131.135 Y87.943 E43.83292
G1 X133.5 Y90.378 E44.19953
G1 X134.405 Y93.15 E44.51445
G1 X134.405 Y129.796 E48.47222
G1 X134.031 Y131.514 E48.66211
G1 X133.049 Y133.124 E48.86578
G1 X131.105 Y135.01 E49.15831
G1 X128.344 Y135.905 E49.47177
G1 X94.704 Y135.905 E53.10489
G1 X92.986 Y135.531 E53.29478
G1 X91.376 Y134.549 E53.49845
G1 X89.49 Y132.605 E53.79097
G1 X88.595 Y129.844 E54.10443
G1 X88.595 Y92.859 E58.09881
G1 X89.443 Y90.365 E58.38331
G0 F9000 X89.791 Y90.585
G1 F1800 X92.091 Y88.351 E58.7296
G1 X94.713 Y87.495 E59.02748
G1 X128.574 Y87.495 E62.68447
G1 X130.915 Y88.291 E62.95151
G1 X133.149 Y90.591 E63.2978
G1 X134.005 Y93.213 E63.59569
G1 X134.005 Y129.752 E67.5419
G1 X133.654 Y131.365 E67.72018
G1 X132.736 Y132.87 E67.91057
G1 X130.893 Y134.658 E68.18789
G1 X128.28 Y135.505 E68.48455
G1 X94.748 Y135.505 E72.10601
G1 X93.135 Y135.154 E72.28429
G1 X91.63 Y134.236 E72.47468
G1 X89.842 Y132.393 E72.752
G1 X88.995 Y129.78 E73.04866
G1 X88.995 Y92.926 E77.02889
G1 X89.791 Y90.585 E77.29594
G0 F9000 X90.139 Y90.805
G1 F1800 X92.304 Y88.702 E77.62191
G1 X94.776 Y87.895 E77.90275
G1 X128.507 Y87.895 E81.5457
G1 X130.695 Y88.639 E81.79529
G1 X132.798 Y90.804 E82.12126
G1 X133.605 Y93.276 E82.4021
G1 X133.605 Y129.708 E86.33676
G1 X133.277 Y131.216 E86.50343
G1 X132.423 Y132.616 E86.68054
G1 X130.681 Y134.306 E86.94267
G1 X128.216 Y135.105 E87.22252
G1 X94.792 Y135.105 E90.83231
G1 X93.284 Y134.777 E90.99899
G1 X91.884 Y133.923 E91.1761
G1 X90.194 Y132.181 E91.43822
G1 X89.395 Y129.716 E91.71808
G1 X89.395 Y92.993 E95.68416
G1 X90.139 Y90.805 E95.93375
G0 F9000 X90.487 Y91.025
G1 F1800 X92.517 Y89.053 E96.23941
G1 X94.839 Y88.295 E96.50321
G1 X128.44 Y88.295 E100.13211
G1 X130.475 Y88.987 E100.36425
G1 X132.447 Y91.017 E100.66991
G1 X133.205 Y93.339 E100.93371
G1 X133.205 Y129.664 E104.85681
G1 X132.9 Y131.067 E105.01187
G1 X132.11 Y132.362 E105.1757
G1 X130.469 Y133.954 E105.42263
G1 X128.152 Y134.705 E105.68568
G1 X94.836 Y134.705 E109.28381
G1 X93.433 Y134.4 E109.43887
G1 X92.138 Y133.61 E109.6027
G1 X90.546 Y131.969 E109.84963
G1 X89.795 Y129.652 E110.11268
G1 X89.795 Y93.06 E114.06461
G1 X90.487 Y91.025 E114.29675
G0 F9000 X90.835 Y91.245
G1 F1800 X92.73 Y89.404 E114.58209
G1 X94.902 Y88.695 E114.82885
G1 X128.373 Y88.695 E118.44372
G1 X130.255 Y89.335 E118.6584
G1 X132.096 Y91.23 E118.94374
G1 X132.805 Y93.402 E119.1905
G1 X132.805 Y129.62 E123.10204
G1 X132.523 Y130.918 E123.2455
G1 X131.797 Y132.108 E123.39605
G1 X130.257 Y133.602 E123.62777
G1 X128.088 Y134.305 E123.87402
G1 X94.88 Y134.305 E127.46049
G1 X93.582 Y134.023 E127.60394
G1 X92.392 Y133.297 E127.75449
G1 X90.898 Y131.757 E127.98622
G1 X90.195 Y129.588 E128.23247
G1 X90.195 Y93.127 E132.17025
G1 X90.835 Y91.245 E132.38494
G0 F9000 X91.183 Y91.465
G1 F1800 X92.943 Y89.755 E132.64996
G1 X94.965 Y89.095 E132.87968
G1 X128.306 Y89.095 E136.48051
G1 X130.035 Y89.683 E136.67774
G1 X131.745 Y91.443 E136.94276
G1 X132.405 Y93.465 E137.17248
G1 X132.405 Y129.576 E141.07247
G1 X132.146 Y130.769 E141.20431
G1 X131.484 Y131.854 E141.34158
G1 X130.045 Y133.25 E141.55811
G1 X128.024 Y133.905 E141.78755
G1 X94.924 Y133.905 E145.36235
G1 X93.731 Y133.646 E145.4942
G1 X92.646 Y132.984 E145.63147
G1 X91.25 Y131.545 E145.84799
G1 X90.595 Y129.524 E146.07744
G1 X90.595 Y93.194 E150.00108
G1 X91.183 Y91.465 E150.19831
G0 F9000 X91.531 Y91.685
G1 F1800 X93.156 Y90.106 E150.44302
G1 X95.028 Y89.495 E150.65569
G1 X128.239 Y89.495 E154.24248
G1 X129.815 Y90.031 E154.42226
G1 X131.394 Y91.656 E154.66697
G1 X132.005 Y93.528 E154.87964
G1 X132.005 Y129.532 E158.76808
G1 X131.769 Y130.62 E158.88831
G1 X131.171 Y131.6 E159.0123
G1 X129.833 Y132.898 E159.21363
G1 X127.96 Y133.505 E159.42627
G1 X94.968 Y133.505 E162.98941
G1 X93.88 Y133.269 E163.10964
G1 X92.9 Y132.671 E163.23363
G1 X91.602 Y131.333 E163.43496
G1 X90.995 Y129.46 E163.6476
G1 X90.995 Y93.261 E167.55709
G1 X91.531 Y91.685 E167.73688
G0 F9000 X91.879 Y91.905
G1 F1800 X93.369 Y90.457 E167.96127
G1 X95.091 Y89.895 E168.1569
G1 X128.172 Y89.895 E171.72964
G1 X129.595 Y90.379 E171.89197
G1 X131.043 Y91.869 E172.11637
G1 X131.605 Y93.591 E172.312
G1 X131.605 Y129.488 E176.18887
G1 X131.392 Y130.469 E176.29729
G1 X130.856 Y131.348 E176.40848
G1 X129.62 Y132.547 E176.59445
G1 X127.899 Y133.105 E176.78985
G1 X95.012 Y133.105 E180.34164
G1 X94.031 Y132.892 E180.45006
G1 X93.152 Y132.356 E180.56125
G1 X91.953 Y131.12 E180.74723
G1 X91.395 Y129.399 E180.94262
G1 X91.395 Y93.328 E184.83829
G1 X91.879 Y91.905 E185.00062
G0 F9000 X92.227 Y92.125
G1 F1800 X93.582 Y90.808 E185.20469
G1 X95.154 Y90.295 E185.38328
G1 X128.105 Y90.295 E188.94199
G1 X129.375 Y90.727 E189.08687
G1 X130.692 Y92.082 E189.29094
G1 X131.205 Y93.654 E189.46953
G1 X131.205 Y129.444 E193.33485
G1 X131.015 Y130.318 E193.43145
G1 X130.541 Y131.096 E193.52984
G1 X129.407 Y132.196 E193.70046
G1 X127.838 Y132.705 E193.87861
G1 X95.056 Y132.705 E197.41906
G1 X94.182 Y132.515 E197.51566
G1 X93.404 Y132.041 E197.61405
G1 X92.304 Y130.907 E197.78467
G1 X91.795 Y129.338 E197.96282
G1 X91.795 Y93.395 E201.84466
G1 X92.227 Y92.125 E201.98954
G0 F9000 X92.575 Y92.345
G1 F1800 X93.795 Y91.159 E202.1733
G1 X95.217 Y90.695 E202.33485
G1 X128.038 Y90.695 E205.87951
G1 X129.155 Y91.075 E206.00694
G1 X130.341 Y92.295 E206.1907
G1 X130.805 Y93.717 E206.35224
G1 X130.805 Y129.4 E210.20601
G1 X130.638 Y130.167 E210.29078
G1 X130.224 Y130.847 E210.37676
G1 X129.195 Y131.845 E210.53158
G1 X127.777 Y132.305 E210.69258
G1 X95.1 Y132.305 E214.2217
G1 X94.333 Y132.138 E214.30647
G1 X93.653 Y131.724 E214.39245
G1 X92.655 Y130.695 E214.54727
G1 X92.195 Y129.277 E214.70827
G1 X92.195 Y93.462 E218.57629
G1 X92.575 Y92.345 E218.70371
G0 F9000 X92.923 Y92.565
G1 F1800 X94.008 Y91.51 E218.86716
G1 X95.28 Y91.095 E219.01166
G1 X127.971 Y91.095 E222.54229
G1 X128.935 Y91.423 E222.65226
G1 X129.99 Y92.508 E222.8157
G1 X130.405 Y93.78 E222.96021
G1 X130.405 Y129.356 E226.80241
G1 X130.261 Y130.016 E226.87537
G1 X129.907 Y130.598 E226.94894
G1 X128.983 Y131.494 E227.08795
G1 X127.716 Y131.905 E227.2318
G1 X95.144 Y131.905 E230.74958
G1 X94.484 Y131.761 E230.82253
G1 X93.902 Y131.407 E230.8961
G1 X93.006 Y130.483 E231.03511
G1 X92.595 Y129.216 E231.17897
G1 X92.595 Y93.529 E235.03316
G1 X92.923 Y92.565 E235.14313
G0 F9000 X93.271 Y92.785
G1 F1800 X94.221 Y91.861 E235.28626
G1 X95.343 Y91.495 E235.41372
G1 X127.904 Y91.495 E238.93031
G1 X128.715 Y91.771 E239.02283
G1 X129.639 Y92.721 E239.16596
G1 X130.005 Y93.843 E239.29342
G1 X130.005 Y129.312 E243.12407
G1 X129.884 Y129.865 E243.18521
G1 X129.59 Y130.349 E243.24637
G1 X128.771 Y131.143 E243.36956
G1 X127.655 Y131.505 E243.49627
G1 X95.188 Y131.505 E247.00271
G1 X94.635 Y131.384 E247.06385
G1 X94.151 Y131.09 E247.12501
G1 X93.357 Y130.271 E247.2482
G1 X92.995 Y129.155 E247.37491
G1 X92.995 Y93.596 E251.21528
G1 X93.271 Y92.785 E251.3078
G0 F9000 X93.619 Y93.005
G1 F1800 X94.434 Y92.212 E251.43061
G1 X95.406 Y91.895 E251.54103
G1 X127.837 Y91.895 E255.04358
G1 X128.495 Y92.119 E255.11865
G1 X129.288 Y92.934 E255.24146
G1 X129.605 Y93.906 E255.35188
G1 X129.605 Y129.312 E259.17573
G1 X129.495 Y129.772 E259.22681
G1 X129.312 Y130.062 E259.26384
G1 X128.56 Y130.791 E259.37695
G1 X127.593 Y131.105 E259.48676
G1 X95.188 Y131.105 E262.9865
G1 X94.728 Y130.995 E263.03758
G1 X94.438 Y130.812 E263.07461
G1 X93.709 Y130.06 E263.18773
G1 X93.395 Y129.093 E263.29753
G1 X93.395 Y93.663 E267.12397
G1 X93.619 Y93.005 E267.19904
G0 F9000 X93.967 Y93.225
G1 F1800 X94.647 Y92.563 E267.30154
G1 X95.469 Y92.295 E267.39491
G1 X127.77 Y92.295 E270.88342
G1 X128.275 Y92.467 E270.94104
G1 X128.937 Y93.147 E271.04353
G1 X129.205 Y93.969 E271.1369
G1 X129.205 Y129.272 E274.94963
G1 X129.146 Y129.576 E274.98307
G1 X129.034 Y129.775 E275.00774
G1 X128.349 Y130.439 E275.11077
G1 X127.531 Y130.705 E275.20367
G1 X95.228 Y130.705 E278.69239
G1 X94.924 Y130.646 E278.72583
G1 X94.725 Y130.534 E278.7505
G1 X94.061 Y129.849 E278.85353
G1 X93.795 Y129.031 E278.94643
G1 X93.795 Y93.73 E282.75893
G1 X93.967 Y93.225 E282.81655
G0 F9000 X94.246 Y93.512
G1 F1800 X94.86 Y92.914 E282.90912
G1 X95.532 Y92.695 E282.98545
G1 X127.77 Y92.695 E286.46715
G1 X127.988 Y92.746 E286.49133
G1 X128.586 Y93.36 E286.5839
G1 X128.805 Y94.032 E286.66023
G1 X128.805 Y129.272 E290.46615
G1 X128.756 Y129.488 E290.49007
G1 X128.138 Y130.087 E290.58302
G1 X127.468 Y130.305 E290.65912
G1 X95.228 Y130.305 E294.14104
G1 X95.012 Y130.256 E294.16496
G1 X94.413 Y129.638 E294.25791
G1 X94.195 Y128.968 E294.334
G1 X94.195 Y93.73 E298.13971
G1 X94.246 Y93.512 E298.16389
G0 F9000 X94.595 Y93.73
G1 F1800 X95.073 Y93.265 E298.23591
G1 X95.595 Y93.095 E298.2952
G1 X127.77 Y93.095 E301.7701
G1 X128.235 Y93.573 E301.84212
G1 X128.405 Y94.095 E301.90141
G1 X128.405 Y129.272 E305.70052
G1 X127.927 Y129.735 E305.7724
G1 X127.405 Y129.905 E305.83169
G1 X95.228 Y129.905 E309.3068
G1 X94.765 Y129.427 E309.37867
G1 X94.595 Y128.905 E309.43796
G1 X94.595 Y93.73 E313.23686
G0 F9000 X95.395 Y93.996
G1 F1800 X95.595 Y93.895 E313.26106
G1 X127.504 Y93.895 E316.70723
G1 X127.605 Y94.095 E316.73143
G1 X127.605 Y129.004 E320.5016
G1 X127.405 Y129.105 E320.5258
G1 X95.496 Y129.105 E323.97197
G1 X95.395 Y128.905 E323.99617
G1 X95.395 Y93.996 E327.76634
G0 F9000 X95.215 Y93.639
G1 F1800 X95.595 Y93.495 E327.81023
G1 X127.636 Y93.495 E331.27066
G1 X127.861 Y93.715 E331.30465
G1 X128.005 Y94.095 E331.34853
G1 X128.005 Y129.137 E335.13307
G1 X127.785 Y129.361 E335.16698
G1 X127.405 Y129.505 E335.21087
G1 X95.363 Y129.505 E338.6714
G1 X95.139 Y129.285 E338.70531
G1 X94.995 Y128.905 E338.7492
G1 X94.995 Y93.864 E342.53363
G1 X95.215 Y93.639 E342.56761
G10
;MESH:cover.stl
G0 F9000 X96.315 Y94.815
G0 X127.205 Y128.705
;TYPE:WALL-OUTER
G11
G1 F1800 X127.205 Y94.295 E346.65552
G1 X95.795 Y94.295 E350.38703
G1 X95.795 Y128.705 E354.47494
G1 X127.205 Y128.705 E358.20644
G0 F9000 X127.205 Y128.505
G0 X126.805 Y128.305
;TYPE:WALL-INNER
G1 F1800 X126.805 Y94.695 E361.65483
G1 X96.195 Y94.695 E364.79542
G1 X96.195 Y128.305 E368.2438
G1 X126.805 Y128.305 E371.38439
G0 F9000 X126.485 Y127.985
;TYPE:SKIN
G1 F1800 X126.485 Y95.015 E374.59797
G1 X96.515 Y95.015 E377.51915
G1 X96.515 Y127.985 E380.73274
G1 X126.485 Y127.985 E383.65391
G10
G0 F9000 X126.785 Y127.985
G0 X97.237 Y128.285
G0 X97.237 Y127.784
G11
G1 F1800 X96.714 Y127.261 E383.726
G0 F9000 X96.714 Y126.695
G1 F1800 X97.802 Y127.784 E383.87605
G0 F9000 X98.368 Y127.784
G1 F1800 X96.714 Y126.13 E384.10404
G0 F9000 X96.714 Y125.564
G1 F1800 X98.934 Y127.784 E384.41005
G0 F9000 X99.499 Y127.784
G1 F1800 X96.714 Y124.998 E384.79401
G0 F9000 X96.714 Y124.433
G1 F1800 X100.065 Y127.784 E385.25593
G0 F9000 X100.631 Y127.784
G1 F1800 X96.714 Y123.867 E385.79586
G0 F9000 X96.714 Y123.301
G1 F1800 X101.196 Y127.784 E386.41374
G0 F9000 X101.762 Y127.784
G1 F1800 X96.714 Y122.736 E387.10958
G0 F9000 X96.714 Y122.17
G1 F1800 X102.328 Y127.784 E387.88343
G0 F9000 X102.893 Y127.784
G1 F1800 X96.714 Y121.604 E388.73523
G0 F9000 X96.714 Y121.039
G1 F1800 X103.459 Y127.784 E389.66499
G0 F9000 X104.025 Y127.784
G1 F1800 X96.714 Y120.473 E390.67276
G0 F9000 X96.714 Y119.907
G1 F1800 X104.59 Y127.784 E391.75848
G0 F9000 X105.156 Y127.784
G1 F1800 X96.714 Y119.341 E392.92223
G0 F9000 X96.714 Y118.776
G1 F1800 X105.722 Y127.784 E394.16392
G0 F9000 X106.288 Y127.784
G1 F1800 X96.714 Y118.21 E395.48363
G0 F9000 X96.714 Y117.644
G1 F1800 X106.853 Y127.784 E396.88129
G0 F9000 X107.419 Y127.784
G1 F1800 X96.714 Y117.079 E398.35691
G0 F9000 X96.714 Y116.513
G1 F1800 X107.985 Y127.784 E399.91054
G0 F9000 X108.55 Y127.784
G1 F1800 X96.714 Y115.947 E401.54212
G0 F9000 X96.714 Y115.382
G1 F1800 X109.116 Y127.784 E403.25166
G0 F9000 X109.682 Y127.784
G1 F1800 X96.714 Y114.816 E405.03921
G0 F9000 X96.714 Y114.25
G1 F1800 X110.247 Y127.784 E406.90471
G0 F9000 X110.813 Y127.784
G1 F1800 X96.714 Y113.685 E408.84817
G0 F9000 X96.714 Y113.119
G1 F1800 X111.379 Y127.784 E410.86964
G0 F9000 X111.944 Y127.784
G1 F1800 X96.714 Y112.553 E412.96907
G0 F9000 X96.714 Y111.988
G1 F1800 X112.51 Y127.784 E415.14644
G0 F9000 X113.076 Y127.784
G1 F1800 X96.714 Y111.422 E417.40183
G0 F9000 X96.714 Y110.856
G1 F1800 X113.641 Y127.784 E419.73518
G0 F9000 X114.207 Y127.784
G1 F1800 X96.714 Y110.29 E422.14654
G0 F9000 X96.714 Y109.725
G1 F1800 X114.773 Y127.784 E424.63586
G0 F9000 X115.339 Y127.784
G1 F1800 X96.714 Y109.159 E427.20319
G0 F9000 X96.714 Y108.593
G1 F1800 X115.904 Y127.784 E429.84847
G0 F9000 X116.47 Y127.784
G1 F1800 X96.714 Y108.028 E432.57171
G0 F9000 X96.714 Y107.462
G1 F1800 X117.036 Y127.784 E435.37296
G0 F9000 X117.601 Y127.784
G1 F1800 X96.714 Y106.896 E438.25216
G0 F9000 X96.714 Y106.331
G1 F1800 X118.167 Y127.784 E441.20932
G0 F9000 X118.733 Y127.784
G1 F1800 X96.714 Y105.765 E444.24449
G0 F9000 X96.714 Y105.199
G1 F1800 X119.298 Y127.784 E447.35762
G0 F9000 X119.864 Y127.784
G1 F1800 X96.714 Y104.634 E450.54869
G0 F9000 X96.714 Y104.068
G1 F1800 X120.43 Y127.784 E453.81778
G0 F9000 X120.995 Y127.784
G1 F1800 X96.714 Y103.502 E457.16483
G0 F9000 X96.714 Y102.937
G1 F1800 X121.561 Y127.784 E460.58982
G0 F9000 X122.127 Y127.784
G1 F1800 X96.714 Y102.371 E464.09284
G0 F9000 X96.714 Y101.805
G1 F1800 X122.692 Y127.784 E467.6738
G0 F9000 X123.258 Y127.784
G1 F1800 X96.714 Y101.24 E471.33272
G0 F9000 X96.714 Y100.674
G1 F1800 X123.824 Y127.784 E475.06965
G0 F9000 X124.389 Y127.784
G1 F1800 X96.714 Y100.108 E478.88454
G0 F9000 X96.714 Y99.542
G1 F1800 X124.955 Y127.784 E482.77744
G0 F9000 X125.521 Y127.784
G1 F1800 X96.714 Y98.977 E486.7483
G0 F9000 X96.714 Y98.411
G1 F1800 X126.087 Y127.784 E490.79717
G0 F9000 X126.285 Y127.416
G1 F1800 X96.714 Y97.845 E494.87334
G0 F9000 X96.714 Y97.28
G1 F1800 X126.285 Y126.85 E498.94944
G0 F9000 X126.285 Y126.285
G1 F1800 X96.714 Y96.714 E503.0256
G0 F9000 X96.714 Y96.148
G1 F1800 X126.285 Y125.719 E507.10177
G0 F9000 X126.285 Y125.153
G1 F1800 X96.714 Y95.583 E511.17787
G0 F9000 X96.912 Y95.215
G1 F1800 X126.285 Y124.587 E515.22667
G0 F9000 X126.285 Y124.022
G1 F1800 X97.478 Y95.215 E519.19753
G0 F9000 X98.043 Y95.215
G1 F1800 X126.285 Y123.456 E523.09043
G0 F9000 X126.285 Y122.89
G1 F1800 X98.609 Y95.215 E526.90532
G0 F9000 X99.175 Y95.215
G1 F1800 X126.285 Y122.325 E530.64225
G0 F9000 X126.285 Y121.759
G1 F1800 X99.74 Y95.215 E534.30124
G0 F9000 X100.306 Y95.215
G1 F1800 X126.285 Y121.193 E537.8822
