;FLAVOR:UltiGCode
;TIME:12510
;MATERIAL:13351
;MATERIAL2:0
;NOZZLE_DIAMETER:0.4
;MINX:56.161
;MINY:46.956
;MINZ:0.27
;MAXX:183.594
;MAXY:163.913
;MAXZ:24.47
;TARGET_MACHINE.NAME:Ultimaker 2+
;Generated with Cura_SteamEngine 5.6.0
M82 ;absolute extrusion mode
G0 F3000 Y50 ;avoid prime blob
G92 E0
G92 E0
G10
;LAYER_COUNT:243
;LAYER:0
M107
G0 F7200 X89.086 Y50.768 Z0.27
;TYPE:SKIRT
G11
G1 F1800 X89.286 Y50.452 E0.04039
G1 X91.853 Y47.959 E0.42685
G1 X94.925 Y46.956 E0.77586
G1 X132.186 Y46.956 E4.80005
G1 X134.804 Y47.846 E5.09869
G1 X135.12 Y48.046 E5.13907
G1 X137.613 Y50.613 E5.52554
G1 X138.616 Y53.685 E5.87455
G1 X138.616 Y87.555 E9.53251
G1 X138.196 Y89.483 E9.74562
G1 X137.086 Y91.303 E9.97585
G1 X134.94 Y93.385 E10.29877
G1 X131.883 Y94.376 E10.64584
G1 X95.017 Y94.376 E14.62737
G1 X93.089 Y93.956 E14.84047
G1 X91.269 Y92.846 E15.07071
G1 X89.187 Y90.7 E15.39362
G1 X88.196 Y87.643 E15.74069
G1 X88.196 Y53.386 E19.44045
G1 X89.086 Y50.768 E19.73909
G0 F7200 X89.465 Y50.897
G1 F1800 X89.565 Y50.739 E19.75928
G1 X92.066 Y48.31 E20.13581
G1 X94.988 Y47.356 E20.46778
G1 X132.119 Y47.356 E24.47793
G1 X134.675 Y48.225 E24.7695
G1 X134.833 Y48.325 E24.78969
G1 X137.262 Y50.826 E25.16622
G1 X138.216 Y53.748 E25.49819
G1 X138.216 Y87.511 E29.1446
G1 X137.819 Y89.334 E29.3461
G1 X136.773 Y91.049 E29.56305
G1 X134.728 Y93.033 E29.87077
G1 X131.819 Y93.976 E30.20103
G1 X95.061 Y93.976 E34.1709
G1 X93.238 Y93.579 E34.3724
G1 X91.523 Y92.533 E34.58935
G1 X89.539 Y90.488 E34.89707
G1 X88.596 Y87.579 E35.22734
G1 X88.596 Y53.453 E38.91294
G1 X89.465 Y50.897 E39.20451
G0 F7200 X89.844 Y51.026
G1 F1800 X92.279 Y48.661 E39.57111
G1 X95.051 Y47.756 E39.88604
G1 X132.052 Y47.756 E43.88215
G1 X134.546 Y48.604 E44.16664
G1 X136.911 Y51.039 E44.53325
G1 X137.816 Y53.811 E44.84817
G1 X137.816 Y87.467 E48.48302
G1 X137.442 Y89.185 E48.67291
G1 X136.46 Y90.795 E48.87658
G1 X134.516 Y92.681 E49.16911
G1 X131.755 Y93.576 E49.48257
G1 X95.105 Y93.576 E53.44077
G1 X93.387 Y93.202 E53.63066
G1 X91.777 Y92.22 E53.83433
G1 X89.891 Y90.276 E54.12685
G1 X88.996 Y87.515 E54.44031
G1 X88.996 Y53.52 E58.11177
G1 X89.844 Y51.026 E58.39627
G0 F7200 X90.192 Y51.246
G1 F1800 X92.492 Y49.012 E58.74256
G1 X95.114 Y48.156 E59.04044
G1 X131.985 Y48.156 E63.02251
G1 X134.326 Y48.952 E63.28955
G1 X136.56 Y51.252 E63.63584
G1 X137.416 Y53.874 E63.93373
G1 X137.416 Y87.423 E67.55702
G1 X137.065 Y89.036 E67.7353
G1 X136.147 Y90.541 E67.92569
G1 X134.304 Y92.329 E68.20301
G1 X131.691 Y93.176 E68.49967
G1 X95.149 Y93.176 E72.44621
G1 X93.536 Y92.825 E72.62449
G1 X92.031 Y91.907 E72.81488
G1 X90.243 Y90.064 E73.0922
G1 X89.396 Y87.451 E73.38886
G1 X89.396 Y53.587 E77.04617
G1 X90.192 Y51.246 E77.31322
G0 F7200 X90.54 Y51.466
G1 F1800 X92.705 Y49.363 E77.63919
G1 X95.177 Y48.556 E77.92003
G1 X131.918 Y48.556 E81.88806
G1 X134.106 Y49.3 E82.13765
G1 X136.209 Y51.465 E82.46362
G1 X137.016 Y53.937 E82.74446
G1 X137.016 Y87.379 E86.3562
G1 X136.688 Y88.887 E86.52287
G1 X135.834 Y90.287 E86.69998
G1 X134.092 Y91.977 E86.96211
G1 X131.627 Y92.776 E87.24196
G1 X95.193 Y92.776 E91.17683
G1 X93.685 Y92.448 E91.34351
G1 X92.285 Y91.594 E91.52062
G1 X90.595 Y89.852 E91.78274
G1 X89.796 Y87.387 E92.0626
G1 X89.796 Y53.654 E95.70576
G1 X90.54 Y51.466 E95.95535
G0 F7200 X90.888 Y51.686
G1 F1800 X92.918 Y49.714 E96.26101
G1 X95.24 Y48.956 E96.52481
G1 X131.851 Y48.956 E100.47879
G1 X133.886 Y49.648 E100.71093
G1 X135.858 Y51.678 E101.01659
G1 X136.616 Y54 E101.28039
G1 X136.616 Y87.335 E104.88057
G1 X136.311 Y88.738 E105.03563
G1 X135.521 Y90.033 E105.19946
G1 X133.88 Y91.625 E105.44639
G1 X131.563 Y92.376 E105.70944
G1 X95.237 Y92.376 E109.63265
G1 X93.834 Y92.071 E109.78771
G1 X92.539 Y91.281 E109.95154
G1 X90.947 Y89.64 E110.19847
G1 X90.196 Y87.323 E110.46152
G1 X90.196 Y53.721 E114.09053
G1 X90.888 Y51.686 E114.32267
G0 F7200 X91.236 Y51.906
G1 F1800 X93.131 Y50.065 E114.60801
G1 X95.303 Y49.356 E114.85477
G1 X131.784 Y49.356 E118.79472
G1 X133.666 Y49.996 E119.0094
G1 X135.507 Y51.891 E119.29474
G1 X136.216 Y54.063 E119.5415
G1 X136.216 Y87.291 E123.13012
G1 X135.934 Y88.589 E123.27358
G1 X135.208 Y89.779 E123.42413
G1 X133.668 Y91.273 E123.65585
G1 X131.499 Y91.976 E123.9021
G1 X95.281 Y91.976 E127.81365
G1 X93.983 Y91.694 E127.9571
G1 X92.793 Y90.968 E128.10765
G1 X91.299 Y89.428 E128.33938
G1 X90.596 Y87.259 E128.58563
G1 X90.596 Y53.788 E132.20049
G1 X91.236 Y51.906 E132.41518
G0 F7200 X91.584 Y52.126
G1 F1800 X93.344 Y50.416 E132.6802
G1 X95.366 Y49.756 E132.90992
G1 X131.717 Y49.756 E136.83583
G1 X133.446 Y50.344 E137.03306
G1 X135.156 Y52.104 E137.29808
G1 X135.816 Y54.126 E137.5278
G1 X135.816 Y87.247 E141.10487
G1 X135.557 Y88.44 E141.23671
G1 X134.895 Y89.525 E141.37398
G1 X133.456 Y90.921 E141.59051
G1 X131.435 Y91.576 E141.81995
G1 X95.325 Y91.576 E145.71983
G1 X94.132 Y91.317 E145.85168
G1 X93.047 Y90.655 E145.98895
G1 X91.651 Y89.216 E146.20547
G1 X90.996 Y87.195 E146.43492
G1 X90.996 Y53.855 E150.03564
G1 X91.584 Y52.126 E150.23287
G0 F7200 X91.932 Y52.346
G1 F1800 X93.557 Y50.767 E150.47758
G1 X95.429 Y50.156 E150.69025
G1 X131.65 Y50.156 E154.60212
G1 X133.226 Y50.692 E154.7819
G1 X134.805 Y52.317 E155.02661
G1 X135.416 Y54.189 E155.23928
G1 X135.416 Y87.203 E158.8048
G1 X135.18 Y88.291 E158.92503
G1 X134.582 Y89.271 E159.04902
G1 X133.244 Y90.569 E159.25035
G1 X131.371 Y91.176 E159.46299
G1 X95.369 Y91.176 E163.35121
G1 X94.281 Y90.94 E163.47144
G1 X93.301 Y90.342 E163.59543
G1 X92.003 Y89.004 E163.79676
G1 X91.396 Y87.131 E164.0094
G1 X91.396 Y53.922 E167.59597
G1 X91.932 Y52.346 E167.77576
G0 F7200 X92.28 Y52.566
G1 F1800 X93.77 Y51.118 E168.00015
G1 X95.492 Y50.556 E168.19578
G1 X131.583 Y50.556 E172.0936
G1 X133.006 Y51.04 E172.25593
G1 X134.454 Y52.53 E172.48033
G1 X135.016 Y54.252 E172.67596
G1 X135.016 Y87.159 E176.22991
G1 X134.803 Y88.14 E176.33833
G1 X134.267 Y89.019 E176.44952
G1 X133.031 Y90.218 E176.63549
G1 X131.31 Y90.776 E176.83089
G1 X95.413 Y90.776 E180.70776
G1 X94.432 Y90.563 E180.81618
G1 X93.553 Y90.027 E180.92737
G1 X92.354 Y88.791 E181.11335
G1 X91.796 Y87.07 E181.30874
G1 X91.796 Y53.989 E184.88149
G1 X92.28 Y52.566 E185.04382
G0 F7200 X92.628 Y52.786
G1 F1800 X93.983 Y51.469 E185.24789
G1 X95.555 Y50.956 E185.42648
G1 X131.516 Y50.956 E189.31027
G1 X132.786 Y51.388 E189.45515
G1 X134.103 Y52.743 E189.65922
G1 X134.616 Y54.315 E189.83781
G1 X134.616 Y87.115 E193.38021
G1 X134.426 Y87.989 E193.47681
G1 X133.952 Y88.767 E193.5752
G1 X132.818 Y89.867 E193.74582
G1 X131.249 Y90.376 E193.92397
G1 X95.457 Y90.376 E197.7895
G1 X94.583 Y90.186 E197.8861
G1 X93.805 Y89.712 E197.98449
G1 X92.705 Y88.578 E198.15511
G1 X92.196 Y87.009 E198.33326
G1 X92.196 Y54.056 E201.89218
G1 X92.628 Y52.786 E202.03706
G0 F7200 X92.976 Y53.006
G1 F1800 X94.196 Y51.82 E202.22082
G1 X95.618 Y51.356 E202.38237
G1 X131.449 Y51.356 E206.25211
G1 X132.566 Y51.736 E206.37954
G1 X133.752 Y52.956 E206.5633
G1 X134.216 Y54.378 E206.72484
G1 X134.216 Y87.071 E210.25569
G1 X134.049 Y87.838 E210.34046
G1 X133.635 Y88.518 E210.42644
G1 X132.606 Y89.516 E210.58126
G1 X131.188 Y89.976 E210.74226
G1 X95.501 Y89.976 E214.59646
G1 X94.734 Y89.809 E214.68123
G1 X94.054 Y89.395 E214.76721
G1 X93.056 Y88.366 E214.92203
G1 X92.596 Y86.948 E215.08303
G1 X92.596 Y54.123 E218.62813
G1 X92.976 Y53.006 E218.75555
G0 F7200 X93.324 Y53.226
G1 F1800 X94.409 Y52.171 E218.919
G1 X95.681 Y51.756 E219.0635
G1 X131.382 Y51.756 E222.91921
G1 X132.346 Y52.084 E223.02918
G1 X133.401 Y53.169 E223.19262
G1 X133.816 Y54.441 E223.33713
G1 X133.816 Y87.027 E226.85641
G1 X133.672 Y87.687 E226.92937
G1 X133.318 Y88.269 E227.00294
G1 X132.394 Y89.165 E227.14195
G1 X131.127 Y89.576 E227.2858
G1 X95.545 Y89.576 E231.12866
G1 X94.885 Y89.432 E231.20161
G1 X94.303 Y89.078 E231.27518
G1 X93.407 Y88.154 E231.41419
G1 X92.996 Y86.887 E231.55805
G1 X92.996 Y54.19 E235.08932
G1 X93.324 Y53.226 E235.19929
G0 F7200 X93.672 Y53.446
G1 F1800 X94.622 Y52.522 E235.34242
G1 X95.744 Y52.156 E235.46988
G1 X131.315 Y52.156 E239.31155
G1 X132.126 Y52.432 E239.40407
G1 X133.05 Y53.382 E239.5472
G1 X133.416 Y54.504 E239.67466
G1 X133.416 Y86.983 E243.18239
G1 X133.295 Y87.536 E243.24353
G1 X133.001 Y88.02 E243.30469
G1 X132.182 Y88.814 E243.42788
G1 X131.066 Y89.176 E243.55459
G1 X95.589 Y89.176 E247.38611
G1 X95.036 Y89.055 E247.44725
G1 X94.552 Y88.761 E247.50841
G1 X93.758 Y87.942 E247.6316
G1 X93.396 Y86.826 E247.75831
G1 X93.396 Y54.257 E251.27576
G1 X93.672 Y53.446 E251.36828
G0 F7200 X94.02 Y53.666
G1 F1800 X94.835 Y52.873 E251.49109
G1 X95.807 Y52.556 E251.60151
G1 X131.248 Y52.556 E255.42914
G1 X131.906 Y52.78 E255.50421
G1 X132.699 Y53.595 E255.62702
G1 X133.016 Y54.567 E255.73744
G1 X133.016 Y86.983 E259.23837
G1 X132.906 Y87.443 E259.28945
G1 X132.723 Y87.733 E259.32648
G1 X131.971 Y88.462 E259.43959
G1 X131.004 Y88.776 E259.5494
G1 X95.589 Y88.776 E263.37422
G1 X95.129 Y88.666 E263.4253
G1 X94.839 Y88.483 E263.46233
G1 X94.11 Y87.731 E263.57545
G1 X93.796 Y86.764 E263.68525
G1 X93.796 Y54.324 E267.18877
G1 X94.02 Y53.666 E267.26384
G0 F7200 X94.368 Y53.886
G1 F1800 X95.048 Y53.224 E267.36634
G1 X95.87 Y52.956 E267.45971
G1 X131.181 Y52.956 E271.2733
G1 X131.686 Y53.128 E271.33092
G1 X132.348 Y53.808 E271.43341
G1 X132.616 Y54.63 E271.52678
G1 X132.616 Y86.943 E275.01659
G1 X132.557 Y87.247 E275.05003
G1 X132.445 Y87.446 E275.0747
G1 X131.76 Y88.11 E275.17773
G1 X130.942 Y88.376 E275.27063
G1 X95.629 Y88.376 E279.08443
G1 X95.325 Y88.317 E279.11787
G1 X95.126 Y88.205 E279.14254
G1 X94.462 Y87.52 E279.24557
G1 X94.196 Y86.702 E279.33847
G1 X94.196 Y54.391 E282.82805
G1 X94.368 Y53.886 E282.88567
G0 F7200 X94.647 Y54.173
G1 F1800 X95.261 Y53.575 E282.97824
G1 X95.933 Y53.356 E283.05457
G1 X131.181 Y53.356 E286.86135
G1 X131.399 Y53.407 E286.88553
G1 X131.997 Y54.021 E286.9781
G1 X132.216 Y54.693 E287.05443
G1 X132.216 Y86.943 E290.53743
G1 X132.167 Y87.159 E290.56135
G1 X131.549 Y87.758 E290.6543
G1 X130.879 Y87.976 E290.7304
G1 X95.629 Y87.976 E294.5374
G1 X95.413 Y87.927 E294.56132
G1 X94.814 Y87.309 E294.65427
G1 X94.596 Y86.639 E294.73036
G1 X94.596 Y54.391 E298.21315
G1 X94.647 Y54.173 E298.23733
G0 F7200 X94.996 Y54.391
G1 F1800 X95.474 Y53.926 E298.30935
G1 X95.996 Y53.756 E298.36864
G1 X131.181 Y53.756 E302.16862
G1 X131.646 Y54.234 E302.24064
G1 X131.816 Y54.756 E302.29993
G1 X131.816 Y86.943 E305.77612
G1 X131.338 Y87.406 E305.848
G1 X130.816 Y87.576 E305.90729
G1 X95.629 Y87.576 E309.70748
G1 X95.166 Y87.098 E309.77935
G1 X94.996 Y86.576 E309.83864
G1 X94.996 Y54.391 E313.31462
G0 F7200 X95.796 Y54.657
G1 F1800 X95.996 Y54.556 E313.33882
G1 X130.915 Y54.556 E317.11007
G1 X131.016 Y54.756 E317.13427
G1 X131.016 Y86.675 E320.58152
G1 X130.816 Y86.776 E320.60572
G1 X95.897 Y86.776 E324.37697
G1 X95.796 Y86.576 E324.40117
G1 X95.796 Y54.657 E327.84842
G0 F7200 X95.396 Y54.525
G1 F1800 X95.616 Y54.3 E327.88241
G1 X95.996 Y54.156 E327.9263
G1 X131.047 Y54.156 E331.71181
G1 X131.272 Y54.376 E331.74579
G1 X131.416 Y54.756 E331.78968
G1 X131.416 Y86.808 E335.25129
G1 X131.196 Y87.032 E335.2852
G1 X130.816 Y87.176 E335.32909
G1 X95.764 Y87.176 E339.11471
G1 X95.54 Y86.956 E339.14862
G1 X95.396 Y86.576 E339.1925
G1 X95.396 Y54.525 E342.65401
G10
G0 F7200 X95.3 Y54.525
G0 X84.194 Y116.901
G11
G1 F1800 X86.955 Y117.586 E342.96124
G1 X89.094 Y118.363 E343.20702
G1 X91.033 Y119.286 E343.43895
G1 X92.907 Y120.404 E343.67462
G1 X95.214 Y122.121 E343.98521
G1 X96.45 Y123.248 E344.16586
G1 X98.017 Y124.956 E344.41619
G1 X99.807 Y127.367 E344.7405
G1 X100.667 Y128.811 E344.92201
G1 X101.912 Y131.459 E345.23803
G1 X102.466 Y133.015 E345.41641
G1 X103.189 Y135.966 E345.74455
G1 X103.504 Y138.319 E346.00094
G1 X103.581 Y140.588 E346.24613
G1 X103.504 Y142.153 E346.41536
G1 X103.161 Y144.608 E346.68307
G1 X102.563 Y147.039 E346.95345
G1 X101.628 Y149.628 E347.25073
G1 X100.955 Y151.051 E347.42074
G1 X99.396 Y153.647 E347.74778
G1 X98.379 Y155.016 E347.93196
G1 X96.407 Y157.182 E348.24832
G1 X95.009 Y158.44 E348.45143
G1 X92.941 Y159.976 E348.72964
G1 X91.027 Y161.115 E348.97019
G1 X88.613 Y162.244 E349.258
G1 X87.018 Y162.81 E349.44079
G1 X84.145 Y163.514 E349.76025
G1 X81.749 Y163.836 E350.02135
G1 X79.481 Y163.913 E350.26643
G1 X77.921 Y163.836 E350.43512
G1 X75.499 Y163.496 E350.69926
G1 X72.643 Y162.786 E351.01709
G1 X71.128 Y162.244 E351.19087
G1 X68.382 Y160.939 E351.51922
G1 X66.885 Y160.036 E351.70804
G1 X64.617 Y158.35 E352.01325
G1 X62.978 Y156.843 E352.25371
G1 X61.788 Y155.538 E352.44445
G1 X59.933 Y153.035 E352.78092
G1 X59.075 Y151.594 E352.96205
G1 X57.829 Y148.944 E353.2783
G1 X57.276 Y147.39 E353.45645
G1 X56.552 Y144.433 E353.78523
G1 X56.238 Y142.082 E354.0414
G1 X56.161 Y139.818 E354.28605
G1 X56.238 Y138.249 E354.45571
G1 X56.569 Y135.876 E354.71447
G1 X57.244 Y133.157 E355.01704
G1 X58.114 Y130.777 E355.29071
G1 X58.787 Y129.354 E355.46072
G1 X60.367 Y126.725 E355.79198
G1 X61.34 Y125.416 E355.96813
G1 X63.375 Y123.182 E356.2945
G1 X64.544 Y122.122 E356.46492
G1 X67.031 Y120.276 E356.79943
G1 X68.667 Y119.311 E357.00456
G1 X71.093 Y118.175 E357.29387
G1 X72.685 Y117.608 E357.47639
G1 X75.642 Y116.884 E357.80518
G1 X77.993 Y116.57 E358.06134
G1 X80.261 Y116.493 E358.30642
G1 X81.821 Y116.57 E358.47511
G1 X84.194 Y116.901 E358.73387
G10
G0 F7200 X68.87 Y119.656
G11
G1 F1800 X71.228 Y118.552 E359.01507
G1 X72.78 Y117.997 E359.19308
G1 X75.737 Y117.273 E359.52187
G1 X78.007 Y116.97 E359.7692
G1 X80.241 Y116.893 E360.01062
G1 X81.801 Y116.97 E360.1793
G1 X84.098 Y117.289 E360.42976
G1 X86.818 Y117.962 E360.73238
G1 X88.957 Y118.739 E360.97816
G1 X90.828 Y119.63 E361.20197
G1 X92.702 Y120.748 E361.43764
G1 X94.944 Y122.417 E361.7395
G1 X96.18 Y123.544 E361.92015
G1 X97.722 Y125.226 E362.16659
G1 X99.463 Y127.572 E362.48211
G1 X100.323 Y129.016 E362.66362
G1 X101.535 Y131.594 E362.97128
G1 X102.077 Y133.11 E363.14516
G1 X102.8 Y136.061 E363.47329
G1 X103.104 Y138.333 E363.72086
G1 X103.181 Y140.568 E363.96238
G1 X103.104 Y142.133 E364.1316
G1 X102.765 Y144.553 E364.39552
G1 X102.187 Y146.903 E364.65688
G1 X101.266 Y149.457 E364.9501
G1 X100.593 Y150.88 E365.1201
G1 X99.075 Y153.408 E365.43857
G1 X98.058 Y154.777 E365.62275
G1 X96.139 Y156.885 E365.93062
G1 X94.741 Y158.143 E366.13374
G1 X92.736 Y159.632 E366.40346
G1 X90.822 Y160.771 E366.644
G1 X88.479 Y161.867 E366.92337
G1 X86.923 Y162.421 E367.10175
G1 X84.05 Y163.125 E367.42121
G1 X81.735 Y163.436 E367.67348
G1 X79.501 Y163.513 E367.91489
G1 X77.941 Y163.436 E368.08358
G1 X75.595 Y163.108 E368.33941
G1 X72.778 Y162.409 E368.65287
G1 X71.263 Y161.867 E368.82665
G1 X68.589 Y160.596 E369.1464
G1 X67.092 Y159.693 E369.33521
G1 X64.856 Y158.029 E369.63623
G1 X63.274 Y156.573 E369.86844
G1 X62.084 Y155.268 E370.05918
G1 X60.277 Y152.83 E370.38692
G1 X59.419 Y151.389 E370.56805
G1 X58.206 Y148.809 E370.87595
G1 X57.665 Y147.295 E371.04958
G1 X56.941 Y144.338 E371.37837
G1 X56.638 Y142.068 E371.62571
G1 X56.561 Y139.838 E371.86669
G1 X56.638 Y138.269 E372.03635
G1 X56.957 Y135.972 E372.2868
G1 X57.62 Y133.294 E372.58476
G1 X58.476 Y130.948 E372.85447
G1 X59.149 Y129.525 E373.02447
G1 X60.688 Y126.964 E373.34716
G1 X61.661 Y125.655 E373.52331
G1 X63.644 Y123.478 E373.84134
G1 X64.813 Y122.418 E374.01177
G1 X67.234 Y120.621 E374.33739
G1 X68.87 Y119.656 E374.54253
G0 F7200 X69.073 Y120.001
G1 F1800 X71.363 Y118.929 E374.81561
G1 X72.915 Y118.374 E374.99362
G1 X75.79 Y117.669 E375.31332
G1 X78.021 Y117.37 E375.55642
G1 X80.221 Y117.293 E375.79416
G1 X81.781 Y117.37 E375.96285
G1 X84.002 Y117.677 E376.205
G1 X86.681 Y118.338 E376.50301
G1 X88.82 Y119.115 E376.74879
G1 X90.623 Y119.974 E376.96448
G1 X92.497 Y121.092 E377.20015
G1 X94.674 Y122.713 E377.49329
G1 X95.91 Y123.84 E377.67394
G1 X97.427 Y125.496 E377.91649
G1 X99.119 Y127.777 E378.22321
G1 X99.979 Y129.221 E378.40472
G1 X101.158 Y131.729 E378.70402
G1 X101.7 Y133.245 E378.8779
G1 X102.404 Y136.114 E379.19695
G1 X102.704 Y138.347 E379.44028
G1 X102.781 Y140.548 E379.67813
G1 X102.704 Y142.113 E379.84735
G1 X102.369 Y144.497 E380.10736
G1 X101.811 Y146.767 E380.35981
