;FLAVOR:UltiGCode
;TIME:2037
;MATERIAL:3756
;MATERIAL2:0
;NOZZLE_DIAMETER:0.4
;MINX:84.501
;MINY:89.292
;MINZ:0.27
;MAXX:131.911
;MAXY:136.702
;MAXZ:11.97
;TARGET_MACHINE.NAME:Ultimaker 2+
;Generated with Cura_SteamEngine 5.6.0
M82 ;absolute extrusion mode
G0 F3000 Y50 ;avoid prime blob
G92 E0
G92 E0
G10
;LAYER_COUNT:79
;LAYER:0
M107
G0 F9000 X91.722 Y95.971 Z0.27
;TYPE:SKIRT
G11
G1 F1800 X92.92 Y94.887 E0.17449
G1 X95.376 Y93.063 E0.50489
G1 X96.775 Y92.229 E0.68079
G1 X99.491 Y90.951 E1.00497
G1 X101.053 Y90.396 E1.184
G1 X103.932 Y89.691 E1.50411
G1 X106.328 Y89.369 E1.76521
G1 X108.596 Y89.292 E2.01029
G1 X110.155 Y89.369 E2.17887
G1 X112.576 Y89.709 E2.4429
G1 X115.438 Y90.42 E2.7614
G1 X116.94 Y90.958 E2.9337
G1 X119.737 Y92.284 E3.26801
G1 X121.166 Y93.146 E3.44824
G1 X123.397 Y94.806 E3.74857
G1 X125.053 Y96.328 E3.99148
G1 X126.338 Y97.739 E4.1976
G1 X128.14 Y100.166 E4.52406
G1 X128.983 Y101.583 E4.70213
G1 X130.245 Y104.263 E5.02206
G1 X130.794 Y105.803 E5.19863
G1 X131.519 Y108.762 E5.52765
G1 X131.834 Y111.115 E5.78405
G1 X131.911 Y113.381 E6.02891
G1 X131.834 Y114.947 E6.19825
G1 X131.512 Y117.281 E6.45271
G1 X130.852 Y119.964 E6.75111
G1 X129.961 Y122.413 E7.03256
G1 X129.28 Y123.851 E7.2044
G1 X127.727 Y126.438 E7.53027
G1 X126.685 Y127.839 E7.71884
G1 X124.738 Y129.975 E8.03099
G1 X123.453 Y131.138 E8.21817
G1 X121.036 Y132.93 E8.54312
G1 X119.602 Y133.784 E8.72338
G1 X116.938 Y135.036 E9.04128
G1 X115.358 Y135.598 E9.22239
G1 X112.476 Y136.304 E9.54285
G1 X110.083 Y136.625 E9.80361
G1 X107.816 Y136.702 E10.04859
G1 X106.256 Y136.625 E10.21727
G1 X103.764 Y136.276 E10.48903
G1 X101.364 Y135.685 E10.75598
G1 X98.858 Y134.778 E11.04381
G1 X97.114 Y133.946 E11.2525
G1 X95.137 Y132.767 E11.5011
G1 X92.957 Y131.148 E11.79436
G1 X91.472 Y129.791 E12.01162
G1 X90.022 Y128.201 E12.24402
G1 X88.271 Y125.827 E12.56261
G1 X87.437 Y124.428 E12.73851
G1 X86.166 Y121.727 E13.0609
G1 X85.605 Y120.15 E13.24168
G1 X84.899 Y117.269 E13.56203
G1 X84.578 Y114.876 E13.82279
G1 X84.501 Y112.613 E14.06734
G1 X84.578 Y111.045 E14.23688
G1 X84.909 Y108.672 E14.49565
G1 X85.586 Y105.943 E14.79931
G1 X86.451 Y103.582 E15.07088
G1 X87.131 Y102.144 E15.24267
G1 X88.684 Y99.557 E15.56854
G1 X89.728 Y98.154 E15.75741
G1 X91.722 Y95.971 E16.07673
G0 F9000 X91.99 Y96.268
G1 F1800 X93.188 Y95.184 E16.25122
G1 X95.581 Y93.407 E16.57312
G1 X96.98 Y92.573 E16.74903
G1 X99.625 Y91.328 E17.06475
G1 X101.148 Y90.785 E17.23938
G1 X104.027 Y90.08 E17.55949
G1 X106.342 Y89.769 E17.81176
G1 X108.576 Y89.692 E18.05318
G1 X110.135 Y89.769 E18.22175
G1 X112.48 Y90.097 E18.47748
G1 X115.303 Y90.797 E18.7916
G1 X116.805 Y91.335 E18.9639
G1 X119.53 Y92.627 E19.28961
G1 X120.959 Y93.489 E19.46984
G1 X123.126 Y95.101 E19.76153
G1 X124.782 Y96.623 E20.00444
G1 X126.042 Y98.008 E20.20666
G1 X127.796 Y100.371 E20.52449
G1 X128.639 Y101.788 E20.70256
G1 X129.868 Y104.398 E21.01413
G1 X130.405 Y105.898 E21.18619
G1 X131.13 Y108.857 E21.51522
G1 X131.434 Y111.129 E21.76278
G1 X131.511 Y113.361 E22.00398
G1 X131.434 Y114.927 E22.17331
G1 X131.116 Y117.226 E22.42397
G1 X130.476 Y119.827 E22.71326
G1 X129.599 Y122.242 E22.99074
G1 X128.918 Y123.68 E23.16258
G1 X127.406 Y126.199 E23.47988
G1 X126.364 Y127.6 E23.66845
G1 X124.47 Y129.678 E23.97211
G1 X123.185 Y130.841 E24.15929
G1 X120.831 Y132.586 E24.47575
G1 X119.397 Y133.44 E24.65601
G1 X116.804 Y134.659 E24.96545
G1 X115.263 Y135.209 E25.14216
G1 X112.381 Y135.915 E25.46262
G1 X110.069 Y136.225 E25.71455
G1 X107.836 Y136.302 E25.95586
G1 X106.276 Y136.225 E26.12455
G1 X103.82 Y135.88 E26.3924
G1 X101.5 Y135.309 E26.65044
G1 X99.03 Y134.417 E26.93406
G1 X97.319 Y133.602 E27.13874
G1 X95.342 Y132.423 E27.38734
G1 X93.227 Y130.853 E27.67181
G1 X91.768 Y129.521 E27.88518
G1 X90.318 Y127.931 E28.11758
G1 X88.615 Y125.622 E28.42744
G1 X87.781 Y124.223 E28.60335
G1 X86.543 Y121.593 E28.91728
G1 X85.994 Y120.055 E29.09365
G1 X85.288 Y117.174 E29.414
G1 X84.978 Y114.862 E29.66593
G1 X84.901 Y112.633 E29.90681
G1 X84.978 Y111.065 E30.07636
G1 X85.297 Y108.768 E30.32682
G1 X85.962 Y106.08 E30.62587
G1 X86.813 Y103.753 E30.89347
G1 X87.493 Y102.315 E31.06526
G1 X89.005 Y99.796 E31.38256
G1 X90.049 Y98.393 E31.57143
G1 X91.99 Y96.268 E31.88226
G0 F9000 X92.258 Y96.565
G1 F1800 X93.456 Y95.481 E32.05674
G1 X95.786 Y93.751 E32.37016
G1 X97.185 Y92.917 E32.54607
G1 X99.76 Y91.705 E32.85343
G1 X101.243 Y91.174 E33.02355
G1 X104.122 Y90.469 E33.34367
G1 X106.356 Y90.169 E33.58711
G1 X108.556 Y90.092 E33.82486
G1 X110.115 Y90.169 E33.99343
G1 X112.424 Y90.493 E34.24525
G1 X115.168 Y91.174 E34.55059
G1 X116.67 Y91.712 E34.7229
G1 X119.323 Y92.97 E35.04
G1 X120.752 Y93.832 E35.22024
G1 X122.855 Y95.396 E35.50329
G1 X124.511 Y96.918 E35.7462
G1 X125.746 Y98.277 E35.94452
G1 X127.452 Y100.576 E36.25371
G1 X128.295 Y101.993 E36.43178
G1 X129.491 Y104.533 E36.73499
G1 X130.028 Y106.033 E36.90706
G1 X130.734 Y108.91 E37.22699
G1 X131.034 Y111.143 E37.47032
G1 X131.111 Y113.341 E37.70785
G1 X131.034 Y114.907 E37.87718
G1 X130.72 Y117.171 E38.12404
G1 X130.1 Y119.691 E38.40431
G1 X129.237 Y122.071 E38.67773
G1 X128.556 Y123.509 E38.84957
G1 X127.085 Y125.96 E39.15829
G1 X126.043 Y127.361 E39.34686
G1 X124.202 Y129.381 E39.64203
G1 X122.917 Y130.544 E39.82921
G1 X120.626 Y132.242 E40.13719
G1 X119.192 Y133.096 E40.31744
G1 X116.669 Y134.282 E40.61853
G1 X115.168 Y134.82 E40.79074
G1 X112.286 Y135.526 E41.1112
G1 X110.055 Y135.825 E41.3543
G1 X107.856 Y135.902 E41.59194
G1 X106.296 Y135.825 E41.76062
G1 X103.876 Y135.484 E42.02457
G1 X101.636 Y134.933 E42.2737
G1 X99.202 Y134.056 E42.55311
G1 X97.524 Y133.258 E42.75379
G1 X95.547 Y132.079 E43.00239
G1 X93.466 Y130.532 E43.28243
G1 X92.064 Y129.251 E43.48754
G1 X90.614 Y127.661 E43.71994
G1 X88.959 Y125.417 E44.02107
G1 X88.125 Y124.018 E44.19698
G1 X86.92 Y121.458 E44.50255
G1 X86.383 Y119.96 E44.67442
G1 X85.677 Y117.079 E44.99477
G1 X85.378 Y114.848 E45.23788
G1 X85.301 Y112.653 E45.47508
G1 X85.378 Y111.085 E45.64463
G1 X85.685 Y108.864 E45.88678
G1 X86.338 Y106.217 E46.18122
G1 X87.175 Y103.924 E46.44485
G1 X87.855 Y102.486 E46.61664
G1 X89.326 Y100.035 E46.92537
G1 X90.37 Y98.632 E47.11424
G1 X92.258 Y96.565 E47.41658
G0 F9000 X92.526 Y96.862
G1 F1800 X93.724 Y95.778 E47.59107
G1 X95.991 Y94.095 E47.896
G1 X97.39 Y93.261 E48.0719
G1 X99.895 Y92.082 E48.37091
G1 X101.378 Y91.551 E48.54103
G1 X104.175 Y90.865 E48.85206
G1 X106.37 Y90.569 E49.09127
G1 X108.536 Y90.492 E49.32534
G1 X110.095 Y90.569 E49.49392
G1 X112.328 Y90.881 E49.73743
G1 X115.033 Y91.551 E50.03839
G1 X116.535 Y92.089 E50.2107
G1 X119.116 Y93.313 E50.51921
G1 X120.545 Y94.175 E50.69944
G1 X122.584 Y95.691 E50.97385
G1 X124.24 Y97.213 E51.21676
G1 X125.45 Y98.546 E51.41119
G1 X127.108 Y100.781 E51.71174
G1 X127.951 Y102.198 E51.88981
G1 X129.114 Y104.668 E52.18466
G1 X129.651 Y106.168 E52.35673
G1 X130.338 Y108.964 E52.66768
G1 X130.634 Y111.157 E52.90667
G1 X130.711 Y113.321 E53.14053
G1 X130.634 Y114.887 E53.30986
G1 X130.324 Y117.116 E53.55291
G1 X129.724 Y119.555 E53.82418
G1 X128.875 Y121.9 E54.09352
G1 X128.194 Y123.338 E54.26536
G1 X126.764 Y125.721 E54.56551
G1 X125.722 Y127.122 E54.75408
G1 X123.907 Y129.111 E55.04489
G1 X122.679 Y130.223 E55.22381
G1 X120.421 Y131.898 E55.52744
G1 X118.987 Y132.752 E55.7077
G1 X116.534 Y133.905 E56.00043
G1 X115.033 Y134.443 E56.17263
G1 X112.233 Y135.13 E56.484
G1 X110.041 Y135.425 E56.72287
G1 X107.876 Y135.502 E56.95684
G1 X106.316 Y135.425 E57.12553
G1 X103.932 Y135.088 E57.38556
G1 X101.771 Y134.557 E57.62589
G1 X99.374 Y133.695 E57.90099
G1 X97.729 Y132.914 E58.09766
G1 X95.752 Y131.735 E58.34626
G1 X93.736 Y130.236 E58.61758
G1 X92.36 Y128.981 E58.81872
G1 X90.91 Y127.391 E59.05112
G1 X89.303 Y125.212 E59.34353
G1 X88.469 Y123.813 E59.51943
G1 X87.297 Y121.323 E59.81665
G1 X86.76 Y119.825 E59.98852
G1 X86.073 Y117.026 E60.29978
G1 X85.778 Y114.834 E60.53865
G1 X85.701 Y112.673 E60.77219
G1 X85.778 Y111.105 E60.94174
G1 X86.073 Y108.96 E61.17558
G1 X86.714 Y106.354 E61.46541
G1 X87.537 Y104.095 E61.72507
G1 X88.217 Y102.657 E61.89686
G1 X89.647 Y100.274 E62.19701
G1 X90.691 Y98.871 E62.38588
G1 X92.526 Y96.862 E62.67974
G0 F9000 X92.794 Y97.159
G1 F1800 X93.992 Y96.075 E62.85423
G1 X96.196 Y94.439 E63.15067
G1 X97.595 Y93.605 E63.32657
G1 X100.03 Y92.459 E63.61722
G1 X101.513 Y91.928 E63.78734
G1 X104.229 Y91.261 E64.08939
G1 X106.384 Y90.969 E64.32425
G1 X108.516 Y90.892 E64.55466
G1 X110.075 Y90.969 E64.72324
G1 X112.272 Y91.277 E64.96283
G1 X114.898 Y91.928 E65.25503
G1 X116.4 Y92.466 E65.42733
G1 X118.909 Y93.656 E65.72724
G1 X120.338 Y94.518 E65.90748
G1 X122.313 Y95.986 E66.17325
G1 X123.969 Y97.508 E66.41616
G1 X125.129 Y98.785 E66.60248
G1 X126.764 Y100.986 E66.8986
G1 X127.607 Y102.403 E67.07667
G1 X128.737 Y104.803 E67.36316
G1 X129.274 Y106.303 E67.53523
G1 X129.942 Y109.018 E67.83719
G1 X130.234 Y111.171 E68.07185
G1 X130.311 Y113.301 E68.30204
G1 X130.234 Y114.867 E68.47137
G1 X129.928 Y117.061 E68.71061
G1 X129.348 Y119.419 E68.97287
G1 X128.513 Y121.729 E69.23815
G1 X127.832 Y123.167 E69.40999
G1 X126.443 Y125.482 E69.70156
G1 X125.401 Y126.883 E69.89013
G1 X123.638 Y128.815 E70.1726
G1 X122.44 Y129.902 E70.34731
G1 X120.216 Y131.554 E70.64651
G1 X118.782 Y132.408 E70.82677
G1 X116.399 Y133.528 E71.11114
G1 X114.898 Y134.066 E71.28335
G1 X112.179 Y134.734 E71.58573
G1 X110.027 Y135.025 E71.82026
G1 X107.896 Y135.102 E72.05056
G1 X106.336 Y135.025 E72.21925
G1 X103.988 Y134.692 E72.47537
G1 X101.906 Y134.18 E72.70692
G1 X99.545 Y133.333 E72.97782
G1 X97.934 Y132.57 E73.17034
G1 X95.957 Y131.391 E73.41894
G1 X93.975 Y129.915 E73.68583
G1 X92.656 Y128.711 E73.87871
G1 X91.206 Y127.121 E74.11111
G1 X89.647 Y125.007 E74.39479
G1 X88.813 Y123.608 E74.57069
G1 X87.674 Y121.188 E74.85955
G1 X87.137 Y119.69 E75.03142
G1 X86.469 Y116.972 E75.3337
G1 X86.178 Y114.82 E75.56823
G1 X86.101 Y112.693 E75.7981
G1 X86.178 Y111.125 E75.96765
G1 X86.469 Y109.015 E76.19768
G1 X87.09 Y106.491 E76.4784
G1 X87.899 Y104.266 E76.73409
G1 X88.579 Y102.828 E76.90589
G1 X89.968 Y100.513 E77.19746
G1 X91.012 Y99.11 E77.38633
G1 X92.794 Y97.159 E77.6717
G0 F9000 X93.062 Y97.456
G1 F1800 X94.26 Y96.372 E77.84619
G1 X96.401 Y94.783 E78.13414
G1 X97.8 Y93.949 E78.31005
G1 X100.165 Y92.836 E78.59234
G1 X101.648 Y92.305 E78.76246
G1 X104.283 Y91.657 E79.05552
G1 X106.399 Y91.369 E79.28615
G1 X108.496 Y91.292 E79.51278
G1 X110.055 Y91.369 E79.68136
G1 X112.216 Y91.673 E79.91704
G1 X114.763 Y92.305 E80.20046
G1 X116.265 Y92.843 E80.37277
G1 X118.702 Y93.999 E80.66408
G1 X120.131 Y94.861 E80.84431
G1 X122.042 Y96.281 E81.10144
G1 X123.698 Y97.803 E81.34435
G1 X124.833 Y99.054 E81.52678
G1 X126.42 Y101.191 E81.81426
G1 X127.263 Y102.608 E81.99233
G1 X128.36 Y104.938 E82.27047
G1 X128.897 Y106.438 E82.44253
G1 X129.546 Y109.072 E82.73551
G1 X129.834 Y111.186 E82.96593
G1 X129.911 Y113.281 E83.19235
G1 X129.834 Y114.847 E83.36168
G1 X129.532 Y117.006 E83.59712
G1 X128.972 Y119.283 E83.85037
G1 X128.151 Y121.558 E84.11158
G1 X127.47 Y122.996 E84.28341
G1 X126.122 Y125.243 E84.56641
G1 X125.08 Y126.644 E84.75498
G1 X123.369 Y128.519 E85.02912
G1 X122.171 Y129.606 E85.20382
G1 X120.011 Y131.21 E85.49439
G1 X118.577 Y132.064 E85.67465
G1 X116.264 Y133.151 E85.95066
G1 X114.763 Y133.689 E86.12287
G1 X112.125 Y134.338 E86.41627
G1 X110.012 Y134.625 E86.64657
G1 X107.916 Y134.702 E86.87309
G1 X106.356 Y134.625 E87.04177
G1 X104.044 Y134.296 E87.29398
G1 X102.041 Y133.803 E87.51676
G1 X99.68 Y132.956 E87.78766
G1 X98.139 Y132.226 E87.97182
G1 X96.162 Y131.047 E88.22042
G1 X94.214 Y129.594 E88.48289
G1 X92.952 Y128.441 E88.6675
G1 X91.502 Y126.851 E88.8999
G1 X89.991 Y124.802 E89.17486
G1 X89.157 Y123.403 E89.35076
G1 X88.051 Y121.053 E89.63127
G1 X87.514 Y119.555 E89.80313
G1 X86.865 Y116.918 E90.09643
G1 X86.578 Y114.805 E90.32672
G1 X86.501 Y112.713 E90.55281
G1 X86.578 Y111.145 E90.72236
G1 X86.865 Y109.07 E90.94859
G1 X87.466 Y106.627 E91.22031
G1 X88.261 Y104.437 E91.47193
G1 X88.941 Y102.999 E91.64372
G1 X90.289 Y100.752 E91.92672
G1 X91.333 Y99.349 E92.11559
G1 X93.062 Y97.456 E92.39247
G0 F9000 X93.33 Y97.753
G1 F1800 X94.528 Y96.669 E92.56696
G1 X96.606 Y95.127 E92.84643
G1 X98.005 Y94.293 E93.02233
G1 X100.3 Y93.213 E93.29626
G1 X101.783 Y92.682 E93.46638
G1 X104.337 Y92.053 E93.75046
G1 X106.414 Y91.769 E93.97686
G1 X108.476 Y91.692 E94.19971
G1 X110.035 Y91.769 E94.36829
G1 X112.12 Y92.061 E94.59567
G1 X114.628 Y92.682 E94.87471
G1 X116.13 Y93.22 E95.04702
G1 X118.495 Y94.342 E95.32973
G1 X119.924 Y95.204 E95.50996
G1 X121.771 Y96.576 E95.75845
G1 X123.427 Y98.098 E96.00136
G1 X124.537 Y99.323 E96.1799
G1 X126.076 Y101.396 E96.45874
G1 X126.919 Y102.813 E96.63681
G1 X127.983 Y105.073 E96.90658
G1 X128.52 Y106.573 E97.07865
G1 X129.15 Y109.126 E97.36265
G1 X129.434 Y111.201 E97.58884
G1 X129.511 Y113.261 E97.81147
G1 X129.434 Y114.827 E97.9808
G1 X129.136 Y116.95 E98.21233
G1 X128.596 Y119.147 E98.45667
G1 X127.789 Y121.387 E98.71381
G1 X127.108 Y122.825 E98.88565
G1 X125.801 Y125.004 E99.16007
G1 X124.759 Y126.405 E99.34864
G1 X123.1 Y128.223 E99.61445
G1 X121.902 Y129.31 E99.78916
G1 X119.806 Y130.866 E100.07108
G1 X118.372 Y131.72 E100.25134
G1 X116.129 Y132.774 E100.51899
G1 X114.628 Y133.312 E100.6912
G1 X112.071 Y133.942 E100.97561
G1 X109.997 Y134.225 E101.20168
G1 X107.936 Y134.302 E101.42443
G1 X106.376 Y134.225 E101.59311
G1 X104.139 Y133.907 E101.83714
G1 X102.176 Y133.426 E102.05541
G1 X99.815 Y132.579 E102.32631
G1 X98.344 Y131.882 E102.50211
G1 X96.367 Y130.703 E102.75071
G1 X94.484 Y129.298 E103.00445
G1 X93.248 Y128.171 E103.1851
G1 X91.798 Y126.581 E103.4175
G1 X90.335 Y124.597 E103.68373
G1 X89.501 Y123.198 E103.85963
G1 X88.428 Y120.918 E104.13178
G1 X87.891 Y119.42 E104.30364
G1 X87.261 Y116.864 E104.58795
G1 X86.978 Y114.79 E104.81402
G1 X86.901 Y112.733 E105.03633
G1 X86.978 Y111.165 E105.20588
G1 X87.261 Y109.125 E105.42831
G1 X87.842 Y106.763 E105.69101
G1 X88.623 Y104.608 E105.93856
G1 X89.303 Y103.17 E106.11035
G1 X90.61 Y100.991 E106.38477
G1 X91.654 Y99.588 E106.57365
G1 X93.33 Y97.753 E106.84205
G0 F9000 X93.598 Y98.05
G1 F1800 X94.796 Y96.966 E107.01653
G1 X96.811 Y95.471 E107.28751
G1 X98.21 Y94.637 E107.46341
G1 X100.435 Y93.59 E107.72899
G1 X101.918 Y93.059 E107.89911
G1 X104.391 Y92.449 E108.1742
G1 X106.429 Y92.169 E108.39637
G1 X108.456 Y92.092 E108.61544
G1 X110.015 Y92.169 E108.78402
G1 X112.064 Y92.457 E109.00749
G1 X114.493 Y93.059 E109.27776
G1 X115.995 Y93.597 E109.45007
G1 X118.288 Y94.685 E109.72417
G1 X119.717 Y95.547 E109.90441
G1 X121.5 Y96.871 E110.14426
G1 X123.156 Y98.393 E110.38717
G1 X124.24 Y99.591 E110.56166
G1 X125.732 Y101.601 E110.83201
G1 X126.575 Y103.018 E111.01008
G1 X127.606 Y105.208 E111.2715
G1 X128.143 Y106.708 E111.44357
G1 X128.754 Y109.181 E111.71868
G1 X129.034 Y111.216 E111.94053
G1 X129.111 Y113.241 E112.15939
G1 X129.034 Y114.807 E112.32872
G1 X128.74 Y116.894 E112.55634
G1 X128.22 Y119.012 E112.79188
G1 X127.427 Y121.216 E113.04485
G1 X126.746 Y122.654 E113.21669
G1 X125.48 Y124.765 E113.48253
G1 X124.438 Y126.166 E113.6711
G1 X122.831 Y127.927 E113.92858
G1 X121.633 Y129.014 E114.10328
G1 X119.601 Y130.522 E114.37657
G1 X118.167 Y131.376 E114.55683
G1 X115.994 Y132.397 E114.81612
G1 X114.493 Y132.935 E114.98833
G1 X112.017 Y133.546 E115.26376
G1 X109.982 Y133.825 E115.4856
G1 X107.956 Y133.902 E115.70456
G1 X106.396 Y133.825 E115.87325
G1 X104.234 Y133.518 E116.10909
G1 X102.271 Y133.037 E116.32736
G1 X99.986 Y132.217 E116.58955
G1 X98.549 Y131.538 E116.7612
G1 X96.572 Y130.359 E117.0098
G1 X94.754 Y129.002 E117.25481
G1 X93.518 Y127.875 E117.43546
G1 X92.094 Y126.312 E117.66382
G1 X90.679 Y124.392 E117.9214
G1 X89.845 Y122.993 E118.09731
G1 X88.805 Y120.783 E118.36109
G1 X88.268 Y119.285 E118.53296
G1 X87.657 Y116.81 E118.80828
G1 X87.378 Y114.775 E119.03012
G1 X87.301 Y112.753 E119.24865
G1 X87.378 Y111.185 E119.4182
G1 X87.657 Y109.18 E119.63683
G1 X88.218 Y106.899 E119.89052
G1 X88.985 Y104.779 E120.134
G1 X89.665 Y103.341 E120.3058
G1 X90.931 Y101.23 E120.57164
