;FLAVOR:UltiGCode
;TIME:1665
;MATERIAL:2825
;MATERIAL2:0
;NOZZLE_DIAMETER:0.4
;MINX:87.634
;MINY:87.634
;MINZ:0.27
;MAXX:135.366
;MAXY:135.366
;MAXZ:11.97
;Generated with Cura_SteamEngine 4.13.0
M82 ;absolute extrusion mode
G0 F3000 Y50 ;avoid prime blob
G92 E0
G92 E0
G10
;LAYER_COUNT:79
;LAYER:0
M107
G0 F4500 X94.347 Y94.901 Z0.27
;TYPE:SKIRT
G11
G1 F1800 X94.899 Y94.35 E0.0737
G1 X96.063 Y93.296 E0.2221
G1 X96.654 Y92.811 E0.29434
G1 X97.917 Y91.873 E0.44301
G1 X98.566 Y91.439 E0.51679
G1 X99.912 Y90.633 E0.66505
G1 X100.594 Y90.269 E0.73811
G1 X102.012 Y89.599 E0.88631
G1 X102.721 Y89.305 E0.95884
G1 X104.201 Y88.775 E1.1074
G1 X104.939 Y88.551 E1.18028
G1 X106.461 Y88.169 E1.32857
G1 X107.226 Y88.017 E1.40228
G1 X108.781 Y87.787 E1.55083
G1 X109.547 Y87.711 E1.62357
G1 X111.114 Y87.634 E1.77183
G1 X111.886 Y87.634 E1.84478
G1 X113.453 Y87.711 E1.99304
G1 X114.219 Y87.787 E2.06579
G1 X115.774 Y88.017 E2.21433
G1 X116.539 Y88.169 E2.28804
G1 X118.061 Y88.551 E2.43633
G1 X118.799 Y88.775 E2.50921
G1 X120.279 Y89.305 E2.65777
G1 X120.988 Y89.599 E2.7303
G1 X122.406 Y90.269 E2.87851
G1 X123.088 Y90.633 E2.95156
G1 X124.434 Y91.439 E3.09982
G1 X125.082 Y91.872 E3.17347
G1 X126.344 Y92.809 E3.322
G1 X126.936 Y93.294 E3.39433
G1 X128.099 Y94.347 E3.54258
G1 X128.65 Y94.899 E3.61629
G1 X129.704 Y96.063 E3.76468
G1 X130.188 Y96.652 E3.83672
G1 X131.125 Y97.913 E3.98518
G1 X131.561 Y98.565 E4.05931
G1 X132.368 Y99.913 E4.20777
G1 X132.731 Y100.594 E4.2807
G1 X133.401 Y102.012 E4.42891
G1 X133.695 Y102.721 E4.50144
G1 X134.225 Y104.201 E4.65
G1 X134.449 Y104.939 E4.72288
G1 X134.831 Y106.461 E4.87117
G1 X134.983 Y107.224 E4.94469
G1 X135.213 Y108.777 E5.09305
G1 X135.289 Y109.545 E5.16598
G1 X135.366 Y111.113 E5.31433
G1 X135.366 Y111.885 E5.38729
G1 X135.289 Y113.453 E5.53564
G1 X135.213 Y114.219 E5.60838
G1 X134.983 Y115.774 E5.75693
G1 X134.831 Y116.539 E5.83064
G1 X134.449 Y118.061 E5.97893
G1 X134.225 Y118.798 E6.05172
G1 X133.696 Y120.276 E6.20007
G1 X133.402 Y120.986 E6.27269
G1 X132.731 Y122.406 E6.4211
G1 X132.367 Y123.088 E6.49416
G1 X131.561 Y124.434 E6.64242
G1 X131.128 Y125.082 E6.71607
G1 X130.191 Y126.344 E6.8646
G1 X129.706 Y126.935 E6.93685
G1 X128.673 Y128.076 E7.0823
G1 X128.079 Y128.671 E7.16175
G1 X126.937 Y129.705 E7.30733
G1 X126.346 Y130.189 E7.37952
G1 X125.083 Y131.127 E7.52819
G1 X124.434 Y131.561 E7.60197
G1 X123.088 Y132.367 E7.75023
G1 X122.406 Y132.731 E7.82328
G1 X120.988 Y133.401 E7.97149
G1 X120.279 Y133.695 E8.04402
G1 X118.799 Y134.225 E8.19258
G1 X118.061 Y134.449 E8.26546
G1 X116.539 Y134.831 E8.41375
G1 X115.774 Y134.983 E8.48746
G1 X114.219 Y135.213 E8.636
G1 X113.453 Y135.289 E8.70875
G1 X111.886 Y135.366 E8.85701
G1 X111.114 Y135.366 E8.92996
G1 X109.547 Y135.289 E9.07822
G1 X108.781 Y135.213 E9.15096
G1 X107.226 Y134.983 E9.29951
G1 X106.461 Y134.831 E9.37321
G1 X104.939 Y134.449 E9.5215
G1 X104.201 Y134.225 E9.59439
G1 X102.721 Y133.695 E9.74294
G1 X102.012 Y133.401 E9.81548
G1 X100.594 Y132.731 E9.96368
G1 X99.912 Y132.367 E10.03674
G1 X98.566 Y131.561 E10.185
G1 X97.917 Y131.127 E10.25878
G1 X96.654 Y130.189 E10.40744
G1 X96.063 Y129.704 E10.47969
G1 X94.899 Y128.65 E10.62809
G1 X94.347 Y128.099 E10.70179
G1 X93.294 Y126.936 E10.85005
G1 X92.809 Y126.344 E10.92237
G1 X91.872 Y125.082 E11.07091
G1 X91.439 Y124.434 E11.14456
G1 X90.633 Y123.088 E11.29281
G1 X90.269 Y122.406 E11.36587
G1 X89.598 Y120.986 E11.51428
G1 X89.304 Y120.276 E11.5869
G1 X88.775 Y118.798 E11.73525
G1 X88.551 Y118.061 E11.80804
G1 X88.169 Y116.539 E11.95633
G1 X88.017 Y115.774 E12.03004
G1 X87.787 Y114.219 E12.17859
G1 X87.712 Y113.454 E12.25123
G1 X87.635 Y111.888 E12.39939
G1 X87.634 Y111.115 E12.47244
G1 X87.711 Y109.547 E12.62079
G1 X87.787 Y108.781 E12.69354
G1 X88.017 Y107.226 E12.84208
G1 X88.169 Y106.461 E12.91579
G1 X88.551 Y104.939 E13.06408
G1 X88.775 Y104.202 E13.13687
G1 X89.304 Y102.724 E13.28522
G1 X89.598 Y102.014 E13.35784
G1 X90.269 Y100.594 E13.50626
G1 X90.633 Y99.912 E13.57931
G1 X91.439 Y98.566 E13.72757
G1 X91.872 Y97.918 E13.80122
G1 X92.809 Y96.656 E13.94975
G1 X93.294 Y96.064 E14.02208
G1 X94.347 Y94.901 E14.17033
G0 F4500 X94.607 Y95.136
G1 F1800 X95.134 Y94.609 E14.24076
G1 X96.298 Y93.555 E14.38916
G1 X96.862 Y93.092 E14.45811
G1 X98.125 Y92.154 E14.60678
G1 X98.746 Y91.739 E14.67736
G1 X100.092 Y90.933 E14.82562
G1 X100.743 Y90.585 E14.89538
G1 X102.161 Y89.915 E15.04359
G1 X102.839 Y89.635 E15.11291
G1 X104.319 Y89.105 E15.26146
G1 X105.024 Y88.89 E15.33112
G1 X106.546 Y88.508 E15.47941
G1 X107.277 Y88.363 E15.54983
G1 X108.832 Y88.133 E15.69838
G1 X109.564 Y88.061 E15.76789
G1 X111.131 Y87.984 E15.91615
G1 X111.869 Y87.984 E15.98589
G1 X113.436 Y88.061 E16.13415
G1 X114.168 Y88.133 E16.20365
G1 X115.723 Y88.363 E16.3522
G1 X116.454 Y88.508 E16.42263
G1 X117.976 Y88.89 E16.57092
G1 X118.681 Y89.105 E16.64057
G1 X120.161 Y89.635 E16.78913
G1 X120.839 Y89.915 E16.85844
G1 X122.257 Y90.585 E17.00665
G1 X122.908 Y90.933 E17.07641
G1 X124.254 Y91.739 E17.22467
G1 X124.874 Y92.153 E17.29512
G1 X126.136 Y93.09 E17.44366
G1 X126.701 Y93.554 E17.51275
G1 X127.864 Y94.607 E17.661
G1 X128.391 Y95.134 E17.73143
G1 X129.445 Y96.298 E17.87983
G1 X129.907 Y96.861 E17.94865
G1 X130.844 Y98.122 E18.09711
G1 X131.26 Y98.745 E18.1679
G1 X132.067 Y100.093 E18.31637
G1 X132.415 Y100.743 E18.38605
G1 X133.085 Y102.161 E18.53425
G1 X133.365 Y102.839 E18.60357
G1 X133.895 Y104.319 E18.75213
G1 X134.11 Y105.024 E18.82178
G1 X134.492 Y106.546 E18.97007
G1 X134.637 Y107.276 E19.0404
G1 X134.867 Y108.829 E19.18876
G1 X134.939 Y109.562 E19.25837
G1 X135.016 Y111.13 E19.40672
G1 X135.016 Y111.868 E19.47646
G1 X134.939 Y113.436 E19.62482
G1 X134.867 Y114.168 E19.69432
G1 X134.637 Y115.723 E19.84287
G1 X134.492 Y116.454 E19.91329
G1 X134.11 Y117.976 E20.06158
G1 X133.896 Y118.68 E20.13112
G1 X133.367 Y120.158 E20.27947
G1 X133.086 Y120.837 E20.34891
G1 X132.415 Y122.257 E20.49733
G1 X132.067 Y122.908 E20.56708
G1 X131.261 Y124.254 E20.71534
G1 X130.847 Y124.874 E20.78579
G1 X129.91 Y126.136 E20.93433
G1 X129.446 Y126.7 E21.00335
G1 X128.413 Y127.841 E21.1488
G1 X127.844 Y128.411 E21.22491
G1 X126.702 Y129.445 E21.37049
G1 X126.138 Y129.908 E21.43945
G1 X124.875 Y130.846 E21.58812
G1 X124.254 Y131.261 E21.6587
G1 X122.908 Y132.067 E21.80696
G1 X122.257 Y132.415 E21.87671
G1 X120.839 Y133.085 E22.02492
G1 X120.161 Y133.365 E22.09424
G1 X118.681 Y133.895 E22.2428
G1 X117.976 Y134.11 E22.31245
G1 X116.454 Y134.492 E22.46074
G1 X115.723 Y134.637 E22.53116
G1 X114.168 Y134.867 E22.67971
G1 X113.436 Y134.939 E22.74922
G1 X111.869 Y135.016 E22.89748
G1 X111.131 Y135.016 E22.96722
G1 X109.564 Y134.939 E23.11548
G1 X108.832 Y134.867 E23.18499
G1 X107.277 Y134.637 E23.33353
G1 X106.546 Y134.492 E23.40396
G1 X105.024 Y134.11 E23.55225
G1 X104.319 Y133.895 E23.6219
G1 X102.839 Y133.365 E23.77046
G1 X102.161 Y133.085 E23.83978
G1 X100.743 Y132.415 E23.98798
G1 X100.092 Y132.067 E24.05774
G1 X98.746 Y131.261 E24.206
G1 X98.125 Y130.846 E24.27658
G1 X96.862 Y129.908 E24.42525
G1 X96.298 Y129.445 E24.49421
G1 X95.134 Y128.391 E24.6426
G1 X94.607 Y127.864 E24.71303
G1 X93.554 Y126.701 E24.86129
G1 X93.09 Y126.136 E24.93038
G1 X92.153 Y124.874 E25.07892
G1 X91.739 Y124.254 E25.14937
G1 X90.933 Y122.908 E25.29763
G1 X90.585 Y122.257 E25.36738
G1 X89.914 Y120.837 E25.5158
G1 X89.633 Y120.158 E25.58524
G1 X89.104 Y118.68 E25.73359
G1 X88.89 Y117.976 E25.80313
G1 X88.508 Y116.454 E25.95142
G1 X88.363 Y115.723 E26.02184
G1 X88.133 Y114.168 E26.17039
G1 X88.061 Y113.437 E26.2398
G1 X87.984 Y111.871 E26.38797
G1 X87.984 Y111.132 E26.4578
G1 X88.061 Y109.564 E26.60616
G1 X88.133 Y108.832 E26.67566
G1 X88.363 Y107.277 E26.82421
G1 X88.508 Y106.546 E26.89464
G1 X88.89 Y105.024 E27.04293
G1 X89.104 Y104.32 E27.11246
G1 X89.633 Y102.842 E27.26081
G1 X89.914 Y102.163 E27.33025
G1 X90.585 Y100.743 E27.47867
G1 X90.933 Y100.092 E27.54843
G1 X91.739 Y98.746 E27.69668
G1 X92.153 Y98.126 E27.76714
G1 X93.09 Y96.864 E27.91567
G1 X93.554 Y96.299 E27.98476
G1 X94.607 Y95.136 E28.13302
G0 F4500 X94.866 Y95.371
G1 F1800 X95.369 Y94.868 E28.20024
G1 X96.533 Y93.814 E28.34864
G1 X97.071 Y93.373 E28.41437
G1 X98.334 Y92.435 E28.56304
G1 X98.926 Y92.039 E28.63035
G1 X100.272 Y91.233 E28.77861
G1 X100.893 Y90.902 E28.84511
G1 X102.311 Y90.232 E28.99331
G1 X102.957 Y89.964 E29.05941
G1 X104.437 Y89.434 E29.20796
G1 X105.109 Y89.23 E29.27433
G1 X106.631 Y88.848 E29.42262
G1 X107.328 Y88.709 E29.48978
G1 X108.883 Y88.479 E29.63833
G1 X109.581 Y88.411 E29.7046
G1 X111.148 Y88.334 E29.85286
G1 X111.852 Y88.334 E29.91939
G1 X113.419 Y88.411 E30.06765
G1 X114.117 Y88.479 E30.13392
G1 X115.672 Y88.709 E30.28247
G1 X116.369 Y88.848 E30.34963
G1 X117.891 Y89.23 E30.49792
G1 X118.563 Y89.434 E30.56429
G1 X120.043 Y89.964 E30.71285
G1 X120.689 Y90.232 E30.77894
G1 X122.107 Y90.902 E30.92715
G1 X122.728 Y91.233 E30.99365
G1 X124.074 Y92.039 E31.1419
G1 X124.665 Y92.434 E31.20908
G1 X125.927 Y93.371 E31.35762
G1 X126.466 Y93.813 E31.42349
G1 X127.629 Y94.866 E31.57175
G1 X128.132 Y95.369 E31.63897
G1 X129.186 Y96.533 E31.78736
G1 X129.626 Y97.07 E31.85297
G1 X130.563 Y98.331 E32.00143
G1 X130.96 Y98.925 E32.06894
G1 X131.767 Y100.273 E32.21741
G1 X132.098 Y100.893 E32.28383
G1 X132.768 Y102.311 E32.43204
G1 X133.036 Y102.957 E32.49813
G1 X133.566 Y104.437 E32.64669
G1 X133.77 Y105.109 E32.71305
G1 X134.152 Y106.631 E32.86134
G1 X134.291 Y107.327 E32.92841
G1 X134.521 Y108.88 E33.07677
G1 X134.589 Y109.579 E33.14314
G1 X134.666 Y111.147 E33.29149
G1 X134.666 Y111.851 E33.35802
G1 X134.589 Y113.419 E33.50638
G1 X134.521 Y114.117 E33.57265
G1 X134.291 Y115.672 E33.72119
G1 X134.152 Y116.369 E33.78836
G1 X133.77 Y117.891 E33.93665
G1 X133.566 Y118.562 E34.00292
G1 X133.037 Y120.04 E34.15127
G1 X132.769 Y120.687 E34.21745
G1 X132.098 Y122.107 E34.36587
G1 X131.767 Y122.728 E34.43237
G1 X130.961 Y124.074 E34.58063
G1 X130.566 Y124.665 E34.6478
G1 X129.629 Y125.927 E34.79634
G1 X129.187 Y126.466 E34.86221
G1 X128.154 Y127.607 E35.00766
G1 X127.609 Y128.152 E35.08049
G1 X126.467 Y129.186 E35.22608
G1 X125.929 Y129.627 E35.29182
G1 X124.666 Y130.565 E35.44049
G1 X124.074 Y130.961 E35.50779
G1 X122.728 Y131.767 E35.65605
G1 X122.107 Y132.098 E35.72255
G1 X120.689 Y132.768 E35.87076
G1 X120.043 Y133.036 E35.93685
G1 X118.563 Y133.566 E36.08541
G1 X117.891 Y133.77 E36.15177
G1 X116.369 Y134.152 E36.30006
G1 X115.672 Y134.291 E36.36722
G1 X114.117 Y134.521 E36.51577
G1 X113.419 Y134.589 E36.58204
G1 X111.852 Y134.666 E36.7303
G1 X111.148 Y134.666 E36.79683
G1 X109.581 Y134.589 E36.94509
G1 X108.883 Y134.521 E37.01137
G1 X107.328 Y134.291 E37.15991
G1 X106.631 Y134.152 E37.22708
G1 X105.109 Y133.77 E37.37537
G1 X104.437 Y133.566 E37.44173
G1 X102.957 Y133.036 E37.59029
G1 X102.311 Y132.768 E37.65638
G1 X100.893 Y132.098 E37.80459
G1 X100.272 Y131.767 E37.87109
G1 X98.926 Y130.961 E38.01935
G1 X98.334 Y130.565 E38.08665
G1 X97.071 Y129.627 E38.23532
G1 X96.533 Y129.186 E38.30106
G1 X95.369 Y128.132 E38.44945
G1 X94.866 Y127.629 E38.51667
G1 X93.813 Y126.466 E38.66493
G1 X93.371 Y125.927 E38.7308
G1 X92.434 Y124.665 E38.87934
G1 X92.039 Y124.074 E38.94652
G1 X91.233 Y122.728 E39.09477
G1 X90.902 Y122.107 E39.16128
G1 X90.231 Y120.687 E39.30969
G1 X89.963 Y120.04 E39.37587
G1 X89.434 Y118.562 E39.52422
G1 X89.23 Y117.891 E39.59049
G1 X88.848 Y116.369 E39.73878
G1 X88.709 Y115.672 E39.80595
G1 X88.479 Y114.117 E39.95449
G1 X88.411 Y113.419 E40.02077
G1 X88.334 Y111.853 E40.16893
G1 X88.334 Y111.149 E40.23546
G1 X88.411 Y109.581 E40.38382
G1 X88.479 Y108.883 E40.45009
G1 X88.709 Y107.328 E40.59864
G1 X88.848 Y106.631 E40.6658
G1 X89.23 Y105.109 E40.81409
G1 X89.434 Y104.438 E40.88036
G1 X89.963 Y102.96 E41.02871
G1 X90.231 Y102.313 E41.09489
G1 X90.902 Y100.893 E41.24331
G1 X91.233 Y100.272 E41.30981
G1 X92.039 Y98.926 E41.45807
G1 X92.434 Y98.335 E41.52524
G1 X93.371 Y97.073 E41.67378
G1 X93.813 Y96.534 E41.73965
G1 X94.866 Y95.371 E41.88791
G0 F4500 X95.126 Y95.606
G1 F1800 X95.604 Y95.128 E41.95179
G1 X96.768 Y94.074 E42.10018
G1 X97.28 Y93.654 E42.16276
G1 X98.543 Y92.716 E42.31143
G1 X99.106 Y92.34 E42.37541
G1 X100.452 Y91.534 E42.52367
G1 X101.042 Y91.218 E42.58692
G1 X102.46 Y90.548 E42.73512
G1 X103.075 Y90.294 E42.798
G1 X104.555 Y89.764 E42.94656
G1 X105.195 Y89.569 E43.00978
G1 X106.717 Y89.187 E43.15807
G1 X107.379 Y89.055 E43.22187
G1 X108.934 Y88.825 E43.37041
G1 X109.598 Y88.76 E43.43346
G1 X111.165 Y88.683 E43.58172
G1 X111.835 Y88.683 E43.64503
G1 X113.402 Y88.76 E43.79329
G1 X114.066 Y88.825 E43.85634
G1 X115.621 Y89.055 E44.00489
G1 X116.283 Y89.187 E44.06868
G1 X117.805 Y89.569 E44.21697
G1 X118.445 Y89.764 E44.28019
G1 X119.925 Y90.294 E44.42875
G1 X120.54 Y90.548 E44.49163
G1 X121.958 Y91.218 E44.63984
G1 X122.548 Y91.534 E44.70309
G1 X123.894 Y92.34 E44.85134
G1 X124.457 Y92.715 E44.91527
G1 X125.719 Y93.652 E45.06381
G1 X126.231 Y94.073 E45.12645
G1 X127.394 Y95.126 E45.27471
G1 X127.872 Y95.604 E45.33859
G1 X128.926 Y96.768 E45.48698
G1 X129.345 Y97.278 E45.54935
G1 X130.282 Y98.539 E45.69781
G1 X130.66 Y99.104 E45.76205
G1 X131.467 Y100.452 E45.91052
G1 X131.782 Y101.042 E45.97373
G1 X132.452 Y102.46 E46.12193
G1 X132.706 Y103.075 E46.18481
G1 X133.236 Y104.555 E46.33337
G1 X133.431 Y105.195 E46.39659
G1 X133.813 Y106.717 E46.54488
G1 X133.944 Y107.378 E46.60856
G1 X134.174 Y108.931 E46.75692
G1 X134.24 Y109.596 E46.82007
G1 X134.317 Y111.164 E46.96843
G1 X134.317 Y111.834 E47.03174
G1 X134.24 Y113.402 E47.1801
G1 X134.175 Y114.066 E47.24315
G1 X133.945 Y115.621 E47.39169
G1 X133.813 Y116.283 E47.45548
G1 X133.431 Y117.805 E47.60377
G1 X133.237 Y118.444 E47.66688
G1 X132.708 Y119.922 E47.81523
G1 X132.453 Y120.538 E47.87823
G1 X131.782 Y121.958 E48.02665
G1 X131.466 Y122.548 E48.0899
G1 X130.66 Y123.894 E48.23815
G1 X130.285 Y124.457 E48.30208
G1 X129.348 Y125.719 E48.45062
G1 X128.928 Y126.231 E48.5132
G1 X127.895 Y127.372 E48.65865
G1 X127.374 Y127.892 E48.72821
G1 X126.232 Y128.926 E48.87379
G1 X125.72 Y129.346 E48.93637
G1 X124.457 Y130.284 E49.08504
G1 X123.894 Y130.66 E49.14902
G1 X122.548 Y131.466 E49.29728
G1 X121.958 Y131.782 E49.36052
G1 X120.54 Y132.452 E49.50873
G1 X119.925 Y132.706 E49.57161
G1 X118.445 Y133.236 E49.72017
G1 X117.805 Y133.431 E49.78339
G1 X116.283 Y133.813 E49.93168
G1 X115.621 Y133.945 E49.99547
G1 X114.066 Y134.175 E50.14402
G1 X113.402 Y134.24 E50.20707
G1 X111.835 Y134.317 E50.35533
G1 X111.165 Y134.317 E50.41864
G1 X109.598 Y134.24 E50.5669
G1 X108.934 Y134.175 E50.62995
G1 X107.379 Y133.945 E50.7785
G1 X106.717 Y133.813 E50.84229
G1 X105.195 Y133.431 E50.99058
G1 X104.555 Y133.236 E51.0538
G1 X103.075 Y132.706 E51.20236
G1 X102.46 Y132.452 E51.26524
G1 X101.042 Y131.782 E51.41344
G1 X100.452 Y131.466 E51.47669
G1 X99.106 Y130.66 E51.62495
G1 X98.543 Y130.284 E51.68893
G1 X97.28 Y129.346 E51.8376
G1 X96.768 Y128.926 E51.90018
G1 X95.604 Y127.872 E52.04857
G1 X95.126 Y127.394 E52.11245
G1 X94.073 Y126.231 E52.26071
G1 X93.652 Y125.719 E52.32335
G1 X92.715 Y124.457 E52.47189
G1 X92.34 Y123.894 E52.53581
G1 X91.534 Y122.548 E52.68407
G1 X91.218 Y121.958 E52.74732
G1 X90.547 Y120.538 E52.89574
G1 X90.292 Y119.922 E52.95874
G1 X89.763 Y118.444 E53.10709
G1 X89.569 Y117.805 E53.17019
G1 X89.187 Y116.283 E53.31848
G1 X89.055 Y115.621 E53.38227
G1 X88.825 Y114.066 E53.53082
G1 X88.76 Y113.402 E53.59387
G1 X88.683 Y111.836 E53.74203
G1 X88.683 Y111.166 E53.80535
G1 X88.76 Y109.598 E53.9537
G1 X88.825 Y108.934 E54.01675
G1 X89.055 Y107.379 E54.1653
G1 X89.187 Y106.717 E54.22909
G1 X89.569 Y105.195 E54.37738
G1 X89.763 Y104.556 E54.44049
G1 X90.292 Y103.078 E54.58883
G1 X90.547 Y102.462 E54.65184
G1 X91.218 Y101.042 E54.80025
G1 X91.534 Y100.452 E54.8635
G1 X92.34 Y99.106 E55.01176
G1 X92.715 Y98.543 E55.07569
G1 X93.652 Y97.281 E55.22422
G1 X94.073 Y96.769 E55.28686
G1 X95.126 Y95.606 E55.43512
G0 F4500 X95.385 Y95.841
G1 F1800 X95.839 Y95.387 E55.4958
G1 X97.003 Y94.333 E55.64419
G1 X97.488 Y93.935 E55.70348
G1 X98.751 Y92.997 E55.85215
G1 X99.285 Y92.64 E55.91285
G1 X100.631 Y91.834 E56.06111
